MODULE nfov_T_ROB1
VAR extjoint extj := [9E9,9E9,9E9,9E9,9E9,9E9];
VAR confdata conf := [0,0,0,0];
PERS tooldata kinectAzure:=[TRUE,[[50.721,-32.000,77.725],[-0.50000,0.50000,-0.50000,0.50000]],[2.000,[50.721,-32.000,77.725],[1,0,0,0],0,0,0]];
TASK PERS wobjdata DefaultFrame:=[FALSE,TRUE,"",[[0.000,0.000,0.000],[1.00000,0.00000,0.00000,0.00000]],[[0,0,0],[1,0,0,0]]];
TASK PERS speeddata Speed000:=[500.000,180.000,5000.000,1080.000];
TASK PERS speeddata Speed001:=[250.000,180.000,5000.000,1080.000];
TASK PERS zonedata Zone000:=[FALSE,1.000,1.000,1.000,0.100,1.000,0.100];
TASK PERS zonedata Zone001:=[FALSE,0.010,0.010,0.010,0.001,0.010,0.001];
PROC Main()
ConfL \Off;
PathAccLim FALSE, TRUE\DecelMax := .1;
SetDO \Sync, DO_0, 0;
SetDO \Sync, DO_1, 0;
MoveAbsJ [[1,0,-1,1,-1,1],extj],Speed000,Zone000,kinectAzure;
SetDO \Sync, DO_0, 1;
MoveL [[741.888,380.583,968.4],[-0.0444,-0.63004,0.70571,-0.32102],conf,extj],Speed001,Zone001,kinectAzure \WObj:=DefaultFrame;
WaitTime \InPos, 3;
SetDO \Sync, DO_1, 1;
WaitTime 1;
SetDO \Sync, DO_1, 0;
MoveL [[721.82,278.022,1014.774],[0.00952,-0.65267,0.70704,-0.27206],conf,extj],Speed001,Zone001,kinectAzure \WObj:=DefaultFrame;
WaitTime \InPos, 3;
SetDO \Sync, DO_1, 1;
WaitTime 1;
SetDO \Sync, DO_1, 0;
MoveL [[708.177,168.972,1046.302],[0.06338,-0.67151,0.70426,-0.22152],conf,extj],Speed001,Zone001,kinectAzure \WObj:=DefaultFrame;
WaitTime \InPos, 3;
SetDO \Sync, DO_1, 1;
WaitTime 1;
SetDO \Sync, DO_1, 0;
MoveL [[701.275,55.968,1062.251],[0.11688,-0.68644,0.69738,-0.1697],conf,extj],Speed001,Zone001,kinectAzure \WObj:=DefaultFrame;
WaitTime \InPos, 3;
SetDO \Sync, DO_1, 1;
WaitTime 1;
SetDO \Sync, DO_1, 0;
MoveL [[701.275,-58.365,1062.251],[-0.1697,0.69738,-0.68644,0.11688],conf,extj],Speed001,Zone001,kinectAzure \WObj:=DefaultFrame;
WaitTime \InPos, 3;
SetDO \Sync, DO_1, 1;
WaitTime 1;
SetDO \Sync, DO_1, 0;
MoveL [[708.177,-171.369,1046.302],[-0.22152,0.70426,-0.67151,0.06338],conf,extj],Speed001,Zone001,kinectAzure \WObj:=DefaultFrame;
WaitTime \InPos, 3;
SetDO \Sync, DO_1, 1;
WaitTime 1;
SetDO \Sync, DO_1, 0;
MoveL [[721.82,-280.419,1014.774],[-0.27206,0.70704,-0.65267,0.00952],conf,extj],Speed001,Zone001,kinectAzure \WObj:=DefaultFrame;
WaitTime \InPos, 3;
SetDO \Sync, DO_1, 1;
WaitTime 1;
SetDO \Sync, DO_1, 0;
MoveL [[741.888,-382.979,968.4],[-0.32102,0.70571,-0.63004,-0.0444],conf,extj],Speed001,Zone001,kinectAzure \WObj:=DefaultFrame;
WaitTime \InPos, 3;
SetDO \Sync, DO_1, 1;
WaitTime 1;
SetDO \Sync, DO_1, 0;
MoveL [[812.608,-382.979,994.22],[-0.28374,0.70192,-0.64768,-0.08547],conf,extj],Speed001,Zone001,kinectAzure \WObj:=DefaultFrame;
WaitTime \InPos, 3;
SetDO \Sync, DO_1, 1;
WaitTime 1;
SetDO \Sync, DO_1, 0;
MoveL [[798.075,-280.419,1042.615],[-0.23354,0.70639,-0.66743,-0.03172],conf,extj],Speed001,Zone001,kinectAzure \WObj:=DefaultFrame;
WaitTime \InPos, 3;
SetDO \Sync, DO_1, 1;
WaitTime 1;
SetDO \Sync, DO_1, 0;
MoveL [[788.195,-171.369,1075.517],[-0.18199,0.70676,-0.68329,0.02221],conf,extj],Speed001,Zone001,kinectAzure \WObj:=DefaultFrame;
WaitTime \InPos, 3;
SetDO \Sync, DO_1, 1;
WaitTime 1;
SetDO \Sync, DO_1, 0;
MoveL [[783.197,-58.365,1092.161],[-0.12938,0.70301,-0.69517,0.07602],conf,extj],Speed001,Zone001,kinectAzure \WObj:=DefaultFrame;
WaitTime \InPos, 3;
SetDO \Sync, DO_1, 1;
WaitTime 1;
SetDO \Sync, DO_1, 0;
MoveL [[783.197,55.968,1092.161],[0.07602,-0.69517,0.70301,-0.12938],conf,extj],Speed001,Zone001,kinectAzure \WObj:=DefaultFrame;
WaitTime \InPos, 3;
SetDO \Sync, DO_1, 1;
WaitTime 1;
SetDO \Sync, DO_1, 0;
MoveL [[788.195,168.972,1075.517],[0.02221,-0.68329,0.70676,-0.18199],conf,extj],Speed001,Zone001,kinectAzure \WObj:=DefaultFrame;
WaitTime \InPos, 3;
SetDO \Sync, DO_1, 1;
WaitTime 1;
SetDO \Sync, DO_1, 0;
MoveL [[798.075,278.022,1042.615],[-0.03172,-0.66743,0.70639,-0.23354],conf,extj],Speed001,Zone001,kinectAzure \WObj:=DefaultFrame;
WaitTime \InPos, 3;
SetDO \Sync, DO_1, 1;
WaitTime 1;
SetDO \Sync, DO_1, 0;
MoveL [[812.608,380.583,994.22],[-0.08547,-0.64768,0.70192,-0.28374],conf,extj],Speed001,Zone001,kinectAzure \WObj:=DefaultFrame;
WaitTime \InPos, 3;
SetDO \Sync, DO_1, 1;
WaitTime 1;
SetDO \Sync, DO_1, 0;
MoveL [[885.853,380.583,1011.631],[-0.12626,-0.66313,0.69574,-0.24549],conf,extj],Speed001,Zone001,kinectAzure \WObj:=DefaultFrame;
WaitTime \InPos, 3;
SetDO \Sync, DO_1, 1;
WaitTime 1;
SetDO \Sync, DO_1, 0;
MoveL [[877.053,278.022,1061.388],[-0.07286,-0.67991,0.70334,-0.19423],conf,extj],Speed001,Zone001,kinectAzure \WObj:=DefaultFrame;
WaitTime \InPos, 3;
SetDO \Sync, DO_1, 1;
WaitTime 1;
SetDO \Sync, DO_1, 0;
MoveL [[871.071,168.972,1095.217],[-0.01904,-0.69274,0.70685,-0.14184],conf,extj],Speed001,Zone001,kinectAzure \WObj:=DefaultFrame;
WaitTime \InPos, 3;
SetDO \Sync, DO_1, 1;
WaitTime 1;
SetDO \Sync, DO_1, 0;
MoveL [[868.045,55.968,1112.33],[0.03489,-0.70153,0.70625,-0.08862],conf,extj],Speed001,Zone001,kinectAzure \WObj:=DefaultFrame;
WaitTime \InPos, 3;
SetDO \Sync, DO_1, 1;
WaitTime 1;
SetDO \Sync, DO_1, 0;
MoveL [[868.045,-58.365,1112.33],[-0.08862,0.70625,-0.70153,0.03489],conf,extj],Speed001,Zone001,kinectAzure \WObj:=DefaultFrame;
WaitTime \InPos, 3;
SetDO \Sync, DO_1, 1;
WaitTime 1;
SetDO \Sync, DO_1, 0;
MoveL [[871.071,-171.369,1095.217],[-0.14184,0.70685,-0.69274,-0.01904],conf,extj],Speed001,Zone001,kinectAzure \WObj:=DefaultFrame;
WaitTime \InPos, 3;
SetDO \Sync, DO_1, 1;
WaitTime 1;
SetDO \Sync, DO_1, 0;
MoveL [[877.053,-280.419,1061.388],[-0.19423,0.70334,-0.67991,-0.07286],conf,extj],Speed001,Zone001,kinectAzure \WObj:=DefaultFrame;
WaitTime \InPos, 3;
SetDO \Sync, DO_1, 1;
WaitTime 1;
SetDO \Sync, DO_1, 0;
MoveL [[885.853,-382.979,1011.631],[-0.24549,0.69574,-0.66313,-0.12626],conf,extj],Speed001,Zone001,kinectAzure \WObj:=DefaultFrame;
WaitTime \InPos, 3;
SetDO \Sync, DO_1, 1;
WaitTime 1;
SetDO \Sync, DO_1, 0;
MoveL [[960.626,-382.979,1020.396],[-0.2064,0.6872,-0.67631,-0.16661],conf,extj],Speed001,Zone001,kinectAzure \WObj:=DefaultFrame;
WaitTime \InPos, 3;
SetDO \Sync, DO_1, 1;
WaitTime 1;
SetDO \Sync, DO_1, 0;
MoveL [[957.68,-280.419,1070.839],[-0.15425,0.6979,-0.69008,-0.11375],conf,extj],Speed001,Zone001,kinectAzure \WObj:=DefaultFrame;
WaitTime \InPos, 3;
SetDO \Sync, DO_1, 1;
WaitTime 1;
SetDO \Sync, DO_1, 0;
MoveL [[955.677,-171.369,1105.134],[-0.1012,0.70454,-0.69983,-0.06022],conf,extj],Speed001,Zone001,kinectAzure \WObj:=DefaultFrame;
WaitTime \InPos, 3;
SetDO \Sync, DO_1, 1;
WaitTime 1;
SetDO \Sync, DO_1, 0;
MoveL [[954.663,-58.365,1122.483],[-0.04757,0.70708,-0.70551,-0.00635],conf,extj],Speed001,Zone001,kinectAzure \WObj:=DefaultFrame;
WaitTime \InPos, 3;
SetDO \Sync, DO_1, 1;
WaitTime 1;
SetDO \Sync, DO_1, 0;
MoveL [[954.663,55.968,1122.483],[-0.00635,-0.70551,0.70708,-0.04757],conf,extj],Speed001,Zone001,kinectAzure \WObj:=DefaultFrame;
WaitTime \InPos, 3;
SetDO \Sync, DO_1, 1;
WaitTime 1;
SetDO \Sync, DO_1, 0;
MoveL [[955.677,168.972,1105.134],[-0.06022,-0.69983,0.70454,-0.1012],conf,extj],Speed001,Zone001,kinectAzure \WObj:=DefaultFrame;
WaitTime \InPos, 3;
SetDO \Sync, DO_1, 1;
WaitTime 1;
SetDO \Sync, DO_1, 0;
MoveL [[957.68,278.022,1070.839],[-0.11375,-0.69008,0.6979,-0.15425],conf,extj],Speed001,Zone001,kinectAzure \WObj:=DefaultFrame;
WaitTime \InPos, 3;
SetDO \Sync, DO_1, 1;
WaitTime 1;
SetDO \Sync, DO_1, 0;
MoveL [[960.626,380.583,1020.396],[-0.16661,-0.67631,0.6872,-0.2064],conf,extj],Speed001,Zone001,kinectAzure \WObj:=DefaultFrame;
WaitTime \InPos, 3;
SetDO \Sync, DO_1, 1;
WaitTime 1;
SetDO \Sync, DO_1, 0;
MoveL [[1035.912,380.583,1020.396],[0.2064,0.6872,-0.67631,0.16661],conf,extj],Speed001,Zone001,kinectAzure \WObj:=DefaultFrame;
WaitTime \InPos, 3;
SetDO \Sync, DO_1, 1;
WaitTime 1;
SetDO \Sync, DO_1, 0;
MoveL [[1038.859,278.022,1070.839],[0.15425,0.6979,-0.69008,0.11375],conf,extj],Speed001,Zone001,kinectAzure \WObj:=DefaultFrame;
WaitTime \InPos, 3;
SetDO \Sync, DO_1, 1;
WaitTime 1;
SetDO \Sync, DO_1, 0;
MoveL [[1040.862,168.972,1105.134],[0.1012,0.70454,-0.69983,0.06022],conf,extj],Speed001,Zone001,kinectAzure \WObj:=DefaultFrame;
WaitTime \InPos, 3;
SetDO \Sync, DO_1, 1;
WaitTime 1;
SetDO \Sync, DO_1, 0;
MoveL [[1041.875,55.968,1122.483],[0.04757,0.70708,-0.70551,0.00635],conf,extj],Speed001,Zone001,kinectAzure \WObj:=DefaultFrame;
WaitTime \InPos, 3;
SetDO \Sync, DO_1, 1;
WaitTime 1;
SetDO \Sync, DO_1, 0;
MoveL [[1041.875,-58.365,1122.483],[0.00635,-0.70551,0.70708,0.04757],conf,extj],Speed001,Zone001,kinectAzure \WObj:=DefaultFrame;
WaitTime \InPos, 3;
SetDO \Sync, DO_1, 1;
WaitTime 1;
SetDO \Sync, DO_1, 0;
MoveL [[1040.862,-171.369,1105.134],[0.06022,-0.69983,0.70454,0.1012],conf,extj],Speed001,Zone001,kinectAzure \WObj:=DefaultFrame;
WaitTime \InPos, 3;
SetDO \Sync, DO_1, 1;
WaitTime 1;
SetDO \Sync, DO_1, 0;
MoveL [[1038.859,-280.419,1070.839],[0.11375,-0.69008,0.6979,0.15425],conf,extj],Speed001,Zone001,kinectAzure \WObj:=DefaultFrame;
WaitTime \InPos, 3;
SetDO \Sync, DO_1, 1;
WaitTime 1;
SetDO \Sync, DO_1, 0;
MoveL [[1035.912,-382.979,1020.396],[0.16661,-0.67631,0.6872,0.2064],conf,extj],Speed001,Zone001,kinectAzure \WObj:=DefaultFrame;
WaitTime \InPos, 3;
SetDO \Sync, DO_1, 1;
WaitTime 1;
SetDO \Sync, DO_1, 0;
MoveL [[1110.686,-382.979,1011.631],[0.12626,-0.66313,0.69574,0.24549],conf,extj],Speed001,Zone001,kinectAzure \WObj:=DefaultFrame;
WaitTime \InPos, 3;
SetDO \Sync, DO_1, 1;
WaitTime 1;
SetDO \Sync, DO_1, 0;
MoveL [[1119.485,-280.419,1061.388],[0.07286,-0.67991,0.70334,0.19423],conf,extj],Speed001,Zone001,kinectAzure \WObj:=DefaultFrame;
WaitTime \InPos, 3;
SetDO \Sync, DO_1, 1;
WaitTime 1;
SetDO \Sync, DO_1, 0;
MoveL [[1125.467,-171.369,1095.217],[0.01904,-0.69274,0.70685,0.14184],conf,extj],Speed001,Zone001,kinectAzure \WObj:=DefaultFrame;
WaitTime \InPos, 3;
SetDO \Sync, DO_1, 1;
WaitTime 1;
SetDO \Sync, DO_1, 0;
MoveL [[1128.494,-58.365,1112.33],[-0.03489,-0.70153,0.70625,0.08862],conf,extj],Speed001,Zone001,kinectAzure \WObj:=DefaultFrame;
WaitTime \InPos, 3;
SetDO \Sync, DO_1, 1;
WaitTime 1;
SetDO \Sync, DO_1, 0;
MoveL [[1128.494,55.968,1112.33],[0.08862,0.70625,-0.70153,-0.03489],conf,extj],Speed001,Zone001,kinectAzure \WObj:=DefaultFrame;
WaitTime \InPos, 3;
SetDO \Sync, DO_1, 1;
WaitTime 1;
SetDO \Sync, DO_1, 0;
MoveL [[1125.467,168.972,1095.217],[0.14184,0.70685,-0.69274,0.01904],conf,extj],Speed001,Zone001,kinectAzure \WObj:=DefaultFrame;
WaitTime \InPos, 3;
SetDO \Sync, DO_1, 1;
WaitTime 1;
SetDO \Sync, DO_1, 0;
MoveL [[1119.485,278.022,1061.388],[0.19423,0.70334,-0.67991,0.07286],conf,extj],Speed001,Zone001,kinectAzure \WObj:=DefaultFrame;
WaitTime \InPos, 3;
SetDO \Sync, DO_1, 1;
WaitTime 1;
SetDO \Sync, DO_1, 0;
MoveL [[1110.686,380.583,1011.631],[0.24549,0.69574,-0.66313,0.12626],conf,extj],Speed001,Zone001,kinectAzure \WObj:=DefaultFrame;
WaitTime \InPos, 3;
SetDO \Sync, DO_1, 1;
WaitTime 1;
SetDO \Sync, DO_1, 0;
MoveL [[1183.931,380.583,994.22],[0.28374,0.70192,-0.64768,0.08547],conf,extj],Speed001,Zone001,kinectAzure \WObj:=DefaultFrame;
WaitTime \InPos, 3;
SetDO \Sync, DO_1, 1;
WaitTime 1;
SetDO \Sync, DO_1, 0;
MoveL [[1198.463,278.022,1042.615],[0.23354,0.70639,-0.66743,0.03172],conf,extj],Speed001,Zone001,kinectAzure \WObj:=DefaultFrame;
WaitTime \InPos, 3;
SetDO \Sync, DO_1, 1;
WaitTime 1;
SetDO \Sync, DO_1, 0;
MoveL [[1208.343,168.972,1075.517],[0.18199,0.70676,-0.68329,-0.02221],conf,extj],Speed001,Zone001,kinectAzure \WObj:=DefaultFrame;
WaitTime \InPos, 3;
SetDO \Sync, DO_1, 1;
WaitTime 1;
SetDO \Sync, DO_1, 0;
MoveL [[1213.341,55.968,1092.161],[0.12938,0.70301,-0.69517,-0.07602],conf,extj],Speed001,Zone001,kinectAzure \WObj:=DefaultFrame;
WaitTime \InPos, 3;
SetDO \Sync, DO_1, 1;
WaitTime 1;
SetDO \Sync, DO_1, 0;
MoveL [[1213.341,-58.365,1092.161],[-0.07602,-0.69517,0.70301,0.12938],conf,extj],Speed001,Zone001,kinectAzure \WObj:=DefaultFrame;
WaitTime \InPos, 3;
SetDO \Sync, DO_1, 1;
WaitTime 1;
SetDO \Sync, DO_1, 0;
MoveL [[1208.343,-171.369,1075.517],[-0.02221,-0.68329,0.70676,0.18199],conf,extj],Speed001,Zone001,kinectAzure \WObj:=DefaultFrame;
WaitTime \InPos, 3;
SetDO \Sync, DO_1, 1;
WaitTime 1;
SetDO \Sync, DO_1, 0;
MoveL [[1198.463,-280.419,1042.615],[0.03172,-0.66743,0.70639,0.23354],conf,extj],Speed001,Zone001,kinectAzure \WObj:=DefaultFrame;
WaitTime \InPos, 3;
SetDO \Sync, DO_1, 1;
WaitTime 1;
SetDO \Sync, DO_1, 0;
MoveL [[1183.931,-382.979,994.22],[0.08547,-0.64768,0.70192,0.28374],conf,extj],Speed001,Zone001,kinectAzure \WObj:=DefaultFrame;
WaitTime \InPos, 3;
SetDO \Sync, DO_1, 1;
WaitTime 1;
SetDO \Sync, DO_1, 0;
MoveL [[1254.651,-382.979,968.4],[0.0444,-0.63004,0.70571,0.32102],conf,extj],Speed001,Zone001,kinectAzure \WObj:=DefaultFrame;
WaitTime \InPos, 3;
SetDO \Sync, DO_1, 1;
WaitTime 1;
SetDO \Sync, DO_1, 0;
MoveL [[1274.718,-280.419,1014.774],[-0.00952,-0.65267,0.70704,0.27206],conf,extj],Speed001,Zone001,kinectAzure \WObj:=DefaultFrame;
WaitTime \InPos, 3;
SetDO \Sync, DO_1, 1;
WaitTime 1;
SetDO \Sync, DO_1, 0;
MoveL [[1288.362,-171.369,1046.302],[-0.06338,-0.67151,0.70426,0.22152],conf,extj],Speed001,Zone001,kinectAzure \WObj:=DefaultFrame;
WaitTime \InPos, 3;
SetDO \Sync, DO_1, 1;
WaitTime 1;
SetDO \Sync, DO_1, 0;
MoveL [[1295.264,-58.365,1062.251],[-0.11688,-0.68644,0.69738,0.1697],conf,extj],Speed001,Zone001,kinectAzure \WObj:=DefaultFrame;
WaitTime \InPos, 3;
SetDO \Sync, DO_1, 1;
WaitTime 1;
SetDO \Sync, DO_1, 0;
MoveL [[1295.264,55.968,1062.251],[0.1697,0.69738,-0.68644,-0.11688],conf,extj],Speed001,Zone001,kinectAzure \WObj:=DefaultFrame;
WaitTime \InPos, 3;
SetDO \Sync, DO_1, 1;
WaitTime 1;
SetDO \Sync, DO_1, 0;
MoveL [[1288.362,168.972,1046.302],[0.22152,0.70426,-0.67151,-0.06338],conf,extj],Speed001,Zone001,kinectAzure \WObj:=DefaultFrame;
WaitTime \InPos, 3;
SetDO \Sync, DO_1, 1;
WaitTime 1;
SetDO \Sync, DO_1, 0;
MoveL [[1274.718,278.022,1014.774],[0.27206,0.70704,-0.65267,-0.00952],conf,extj],Speed001,Zone001,kinectAzure \WObj:=DefaultFrame;
WaitTime \InPos, 3;
SetDO \Sync, DO_1, 1;
WaitTime 1;
SetDO \Sync, DO_1, 0;
MoveL [[1254.651,380.583,968.4],[0.32102,0.70571,-0.63004,0.0444],conf,extj],Speed001,Zone001,kinectAzure \WObj:=DefaultFrame;
WaitTime \InPos, 3;
SetDO \Sync, DO_1, 1;
WaitTime 1;
SetDO \Sync, DO_1, 0;
MoveAbsJ [[1,0,-1,1,-1,1],extj],Speed000,Zone000,kinectAzure;
SetDO \Sync, DO_0, 0;
ENDPROC
ENDMODULE