MODULE nfov_85_T_ROB1
VAR extjoint extj := [9E9,9E9,9E9,9E9,9E9,9E9];
VAR confdata conf := [0,0,0,0];
PERS tooldata kinectAzure:=[TRUE,[[50.721,-32.000,77.725],[-0.50000,0.50000,-0.50000,0.50000]],[2.000,[50.721,-32.000,77.725],[1,0,0,0],0,0,0]];
TASK PERS wobjdata DefaultFrame:=[FALSE,TRUE,"",[[0.000,0.000,0.000],[1.00000,0.00000,0.00000,0.00000]],[[0,0,0],[1,0,0,0]]];
TASK PERS speeddata Speed000:=[500.000,180.000,5000.000,1080.000];
TASK PERS speeddata Speed001:=[250.000,180.000,5000.000,1080.000];
TASK PERS zonedata Zone000:=[FALSE,1.000,1.000,1.000,0.100,1.000,0.100];
TASK PERS zonedata Zone001:=[FALSE,0.010,0.010,0.010,0.001,0.010,0.001];
PROC Main()
ConfL \Off;
PathAccLim FALSE, TRUE\DecelMax := .1;
SetDO \Sync, DO_0, 0;
SetDO \Sync, DO_1, 0;
MoveAbsJ [[1,0,-1,1,-1,1],extj],Speed000,Zone000,kinectAzure;
SetDO \Sync, DO_0, 1;
MoveL [[707.704,431.487,1047.395],[-0.0444,-0.63004,0.70571,-0.32102],conf,extj],Speed001,Zone001,kinectAzure \WObj:=DefaultFrame;
WaitTime \InPos, 3;
SetDO \Sync, DO_1, 1;
WaitTime 1;
SetDO \Sync, DO_1, 0;
MoveL [[684.96,315.251,1099.952],[0.00952,-0.65267,0.70704,-0.27206],conf,extj],Speed001,Zone001,kinectAzure \WObj:=DefaultFrame;
WaitTime \InPos, 3;
SetDO \Sync, DO_1, 1;
WaitTime 1;
SetDO \Sync, DO_1, 0;
MoveL [[669.498,191.662,1135.684],[0.06338,-0.67151,0.70426,-0.22152],conf,extj],Speed001,Zone001,kinectAzure \WObj:=DefaultFrame;
WaitTime \InPos, 3;
SetDO \Sync, DO_1, 1;
WaitTime 1;
SetDO \Sync, DO_1, 0;
MoveL [[661.676,63.59,1153.76],[0.11688,-0.68644,0.69738,-0.1697],conf,extj],Speed001,Zone001,kinectAzure \WObj:=DefaultFrame;
WaitTime \InPos, 3;
SetDO \Sync, DO_1, 1;
WaitTime 1;
SetDO \Sync, DO_1, 0;
MoveL [[661.676,-65.987,1153.76],[-0.1697,0.69738,-0.68644,0.11688],conf,extj],Speed001,Zone001,kinectAzure \WObj:=DefaultFrame;
WaitTime \InPos, 3;
SetDO \Sync, DO_1, 1;
WaitTime 1;
SetDO \Sync, DO_1, 0;
MoveL [[669.498,-194.058,1135.684],[-0.22152,0.70426,-0.67151,0.06338],conf,extj],Speed001,Zone001,kinectAzure \WObj:=DefaultFrame;
WaitTime \InPos, 3;
SetDO \Sync, DO_1, 1;
WaitTime 1;
SetDO \Sync, DO_1, 0;
MoveL [[684.96,-317.648,1099.952],[-0.27206,0.70704,-0.65267,0.00952],conf,extj],Speed001,Zone001,kinectAzure \WObj:=DefaultFrame;
WaitTime \InPos, 3;
SetDO \Sync, DO_1, 1;
WaitTime 1;
SetDO \Sync, DO_1, 0;
MoveL [[707.704,-433.884,1047.395],[-0.32102,0.70571,-0.63004,-0.0444],conf,extj],Speed001,Zone001,kinectAzure \WObj:=DefaultFrame;
WaitTime \InPos, 3;
SetDO \Sync, DO_1, 1;
WaitTime 1;
SetDO \Sync, DO_1, 0;
MoveL [[787.853,-433.884,1076.657],[-0.28374,0.70192,-0.64768,-0.08547],conf,extj],Speed001,Zone001,kinectAzure \WObj:=DefaultFrame;
WaitTime \InPos, 3;
SetDO \Sync, DO_1, 1;
WaitTime 1;
SetDO \Sync, DO_1, 0;
MoveL [[771.383,-317.648,1131.505],[-0.23354,0.70639,-0.66743,-0.03172],conf,extj],Speed001,Zone001,kinectAzure \WObj:=DefaultFrame;
WaitTime \InPos, 3;
SetDO \Sync, DO_1, 1;
WaitTime 1;
SetDO \Sync, DO_1, 0;
MoveL [[760.185,-194.058,1168.794],[-0.18199,0.70676,-0.68329,0.02221],conf,extj],Speed001,Zone001,kinectAzure \WObj:=DefaultFrame;
WaitTime \InPos, 3;
SetDO \Sync, DO_1, 1;
WaitTime 1;
SetDO \Sync, DO_1, 0;
MoveL [[754.521,-65.987,1187.657],[-0.12938,0.70301,-0.69517,0.07602],conf,extj],Speed001,Zone001,kinectAzure \WObj:=DefaultFrame;
WaitTime \InPos, 3;
SetDO \Sync, DO_1, 1;
WaitTime 1;
SetDO \Sync, DO_1, 0;
MoveL [[754.521,63.59,1187.657],[0.07602,-0.69517,0.70301,-0.12938],conf,extj],Speed001,Zone001,kinectAzure \WObj:=DefaultFrame;
WaitTime \InPos, 3;
SetDO \Sync, DO_1, 1;
WaitTime 1;
SetDO \Sync, DO_1, 0;
MoveL [[760.185,191.662,1168.794],[0.02221,-0.68329,0.70676,-0.18199],conf,extj],Speed001,Zone001,kinectAzure \WObj:=DefaultFrame;
WaitTime \InPos, 3;
SetDO \Sync, DO_1, 1;
WaitTime 1;
SetDO \Sync, DO_1, 0;
MoveL [[771.383,315.251,1131.505],[-0.03172,-0.66743,0.70639,-0.23354],conf,extj],Speed001,Zone001,kinectAzure \WObj:=DefaultFrame;
WaitTime \InPos, 3;
SetDO \Sync, DO_1, 1;
WaitTime 1;
SetDO \Sync, DO_1, 0;
MoveL [[787.853,431.487,1076.657],[-0.08547,-0.64768,0.70192,-0.28374],conf,extj],Speed001,Zone001,kinectAzure \WObj:=DefaultFrame;
WaitTime \InPos, 3;
SetDO \Sync, DO_1, 1;
WaitTime 1;
SetDO \Sync, DO_1, 0;
MoveL [[870.864,431.487,1096.39],[-0.12626,-0.66313,0.69574,-0.24549],conf,extj],Speed001,Zone001,kinectAzure \WObj:=DefaultFrame;
WaitTime \InPos, 3;
SetDO \Sync, DO_1, 1;
WaitTime 1;
SetDO \Sync, DO_1, 0;
MoveL [[860.891,315.251,1152.782],[-0.07286,-0.67991,0.70334,-0.19423],conf,extj],Speed001,Zone001,kinectAzure \WObj:=DefaultFrame;
WaitTime \InPos, 3;
SetDO \Sync, DO_1, 1;
WaitTime 1;
SetDO \Sync, DO_1, 0;
MoveL [[854.111,191.662,1191.121],[-0.01904,-0.69274,0.70685,-0.14184],conf,extj],Speed001,Zone001,kinectAzure \WObj:=DefaultFrame;
WaitTime \InPos, 3;
SetDO \Sync, DO_1, 1;
WaitTime 1;
SetDO \Sync, DO_1, 0;
MoveL [[850.682,63.59,1210.515],[0.03489,-0.70153,0.70625,-0.08862],conf,extj],Speed001,Zone001,kinectAzure \WObj:=DefaultFrame;
WaitTime \InPos, 3;
SetDO \Sync, DO_1, 1;
WaitTime 1;
SetDO \Sync, DO_1, 0;
MoveL [[850.682,-65.987,1210.515],[-0.08862,0.70625,-0.70153,0.03489],conf,extj],Speed001,Zone001,kinectAzure \WObj:=DefaultFrame;
WaitTime \InPos, 3;
SetDO \Sync, DO_1, 1;
WaitTime 1;
SetDO \Sync, DO_1, 0;
MoveL [[854.111,-194.058,1191.121],[-0.14184,0.70685,-0.69274,-0.01904],conf,extj],Speed001,Zone001,kinectAzure \WObj:=DefaultFrame;
WaitTime \InPos, 3;
SetDO \Sync, DO_1, 1;
WaitTime 1;
SetDO \Sync, DO_1, 0;
MoveL [[860.891,-317.648,1152.782],[-0.19423,0.70334,-0.67991,-0.07286],conf,extj],Speed001,Zone001,kinectAzure \WObj:=DefaultFrame;
WaitTime \InPos, 3;
SetDO \Sync, DO_1, 1;
WaitTime 1;
SetDO \Sync, DO_1, 0;
MoveL [[870.864,-433.884,1096.39],[-0.24549,0.69574,-0.66313,-0.12626],conf,extj],Speed001,Zone001,kinectAzure \WObj:=DefaultFrame;
WaitTime \InPos, 3;
SetDO \Sync, DO_1, 1;
WaitTime 1;
SetDO \Sync, DO_1, 0;
MoveL [[955.607,-433.884,1106.323],[-0.2064,0.6872,-0.67631,-0.16661],conf,extj],Speed001,Zone001,kinectAzure \WObj:=DefaultFrame;
WaitTime \InPos, 3;
SetDO \Sync, DO_1, 1;
WaitTime 1;
SetDO \Sync, DO_1, 0;
MoveL [[952.268,-317.648,1163.493],[-0.15425,0.6979,-0.69008,-0.11375],conf,extj],Speed001,Zone001,kinectAzure \WObj:=DefaultFrame;
WaitTime \InPos, 3;
SetDO \Sync, DO_1, 1;
WaitTime 1;
SetDO \Sync, DO_1, 0;
MoveL [[949.998,-194.058,1202.36],[-0.1012,0.70454,-0.69983,-0.06022],conf,extj],Speed001,Zone001,kinectAzure \WObj:=DefaultFrame;
WaitTime \InPos, 3;
SetDO \Sync, DO_1, 1;
WaitTime 1;
SetDO \Sync, DO_1, 0;
MoveL [[948.849,-65.987,1222.023],[-0.04757,0.70708,-0.70551,-0.00635],conf,extj],Speed001,Zone001,kinectAzure \WObj:=DefaultFrame;
WaitTime \InPos, 3;
SetDO \Sync, DO_1, 1;
WaitTime 1;
SetDO \Sync, DO_1, 0;
MoveL [[948.849,63.59,1222.023],[-0.00635,-0.70551,0.70708,-0.04757],conf,extj],Speed001,Zone001,kinectAzure \WObj:=DefaultFrame;
WaitTime \InPos, 3;
SetDO \Sync, DO_1, 1;
WaitTime 1;
SetDO \Sync, DO_1, 0;
MoveL [[949.998,191.662,1202.36],[-0.06022,-0.69983,0.70454,-0.1012],conf,extj],Speed001,Zone001,kinectAzure \WObj:=DefaultFrame;
WaitTime \InPos, 3;
SetDO \Sync, DO_1, 1;
WaitTime 1;
SetDO \Sync, DO_1, 0;
MoveL [[952.268,315.251,1163.493],[-0.11375,-0.69008,0.6979,-0.15425],conf,extj],Speed001,Zone001,kinectAzure \WObj:=DefaultFrame;
WaitTime \InPos, 3;
SetDO \Sync, DO_1, 1;
WaitTime 1;
SetDO \Sync, DO_1, 0;
MoveL [[955.607,431.487,1106.323],[-0.16661,-0.67631,0.6872,-0.2064],conf,extj],Speed001,Zone001,kinectAzure \WObj:=DefaultFrame;
WaitTime \InPos, 3;
SetDO \Sync, DO_1, 1;
WaitTime 1;
SetDO \Sync, DO_1, 0;
MoveL [[1040.931,431.487,1106.323],[0.2064,0.6872,-0.67631,0.16661],conf,extj],Speed001,Zone001,kinectAzure \WObj:=DefaultFrame;
WaitTime \InPos, 3;
SetDO \Sync, DO_1, 1;
WaitTime 1;
SetDO \Sync, DO_1, 0;
MoveL [[1044.27,315.251,1163.493],[0.15425,0.6979,-0.69008,0.11375],conf,extj],Speed001,Zone001,kinectAzure \WObj:=DefaultFrame;
WaitTime \InPos, 3;
SetDO \Sync, DO_1, 1;
WaitTime 1;
SetDO \Sync, DO_1, 0;
MoveL [[1046.541,191.662,1202.36],[0.1012,0.70454,-0.69983,0.06022],conf,extj],Speed001,Zone001,kinectAzure \WObj:=DefaultFrame;
WaitTime \InPos, 3;
SetDO \Sync, DO_1, 1;
WaitTime 1;
SetDO \Sync, DO_1, 0;
MoveL [[1047.689,63.59,1222.023],[0.04757,0.70708,-0.70551,0.00635],conf,extj],Speed001,Zone001,kinectAzure \WObj:=DefaultFrame;
WaitTime \InPos, 3;
SetDO \Sync, DO_1, 1;
WaitTime 1;
SetDO \Sync, DO_1, 0;
MoveL [[1047.689,-65.987,1222.023],[0.00635,-0.70551,0.70708,0.04757],conf,extj],Speed001,Zone001,kinectAzure \WObj:=DefaultFrame;
WaitTime \InPos, 3;
SetDO \Sync, DO_1, 1;
WaitTime 1;
SetDO \Sync, DO_1, 0;
MoveL [[1046.541,-194.058,1202.36],[0.06022,-0.69983,0.70454,0.1012],conf,extj],Speed001,Zone001,kinectAzure \WObj:=DefaultFrame;
WaitTime \InPos, 3;
SetDO \Sync, DO_1, 1;
WaitTime 1;
SetDO \Sync, DO_1, 0;
MoveL [[1044.27,-317.648,1163.493],[0.11375,-0.69008,0.6979,0.15425],conf,extj],Speed001,Zone001,kinectAzure \WObj:=DefaultFrame;
WaitTime \InPos, 3;
SetDO \Sync, DO_1, 1;
WaitTime 1;
SetDO \Sync, DO_1, 0;
MoveL [[1040.931,-433.884,1106.323],[0.16661,-0.67631,0.6872,0.2064],conf,extj],Speed001,Zone001,kinectAzure \WObj:=DefaultFrame;
WaitTime \InPos, 3;
SetDO \Sync, DO_1, 1;
WaitTime 1;
SetDO \Sync, DO_1, 0;
MoveL [[1125.675,-433.884,1096.39],[0.12626,-0.66313,0.69574,0.24549],conf,extj],Speed001,Zone001,kinectAzure \WObj:=DefaultFrame;
WaitTime \InPos, 3;
SetDO \Sync, DO_1, 1;
WaitTime 1;
SetDO \Sync, DO_1, 0;
MoveL [[1135.647,-317.648,1152.782],[0.07286,-0.67991,0.70334,0.19423],conf,extj],Speed001,Zone001,kinectAzure \WObj:=DefaultFrame;
WaitTime \InPos, 3;
SetDO \Sync, DO_1, 1;
WaitTime 1;
SetDO \Sync, DO_1, 0;
MoveL [[1142.427,-194.058,1191.121],[0.01904,-0.69274,0.70685,0.14184],conf,extj],Speed001,Zone001,kinectAzure \WObj:=DefaultFrame;
WaitTime \InPos, 3;
SetDO \Sync, DO_1, 1;
WaitTime 1;
SetDO \Sync, DO_1, 0;
MoveL [[1145.857,-65.987,1210.515],[-0.03489,-0.70153,0.70625,0.08862],conf,extj],Speed001,Zone001,kinectAzure \WObj:=DefaultFrame;
WaitTime \InPos, 3;
SetDO \Sync, DO_1, 1;
WaitTime 1;
SetDO \Sync, DO_1, 0;
MoveL [[1145.857,63.59,1210.515],[0.08862,0.70625,-0.70153,-0.03489],conf,extj],Speed001,Zone001,kinectAzure \WObj:=DefaultFrame;
WaitTime \InPos, 3;
SetDO \Sync, DO_1, 1;
WaitTime 1;
SetDO \Sync, DO_1, 0;
MoveL [[1142.427,191.662,1191.121],[0.14184,0.70685,-0.69274,0.01904],conf,extj],Speed001,Zone001,kinectAzure \WObj:=DefaultFrame;
WaitTime \InPos, 3;
SetDO \Sync, DO_1, 1;
WaitTime 1;
SetDO \Sync, DO_1, 0;
MoveL [[1135.647,315.251,1152.782],[0.19423,0.70334,-0.67991,0.07286],conf,extj],Speed001,Zone001,kinectAzure \WObj:=DefaultFrame;
WaitTime \InPos, 3;
SetDO \Sync, DO_1, 1;
WaitTime 1;
SetDO \Sync, DO_1, 0;
MoveL [[1125.675,431.487,1096.39],[0.24549,0.69574,-0.66313,0.12626],conf,extj],Speed001,Zone001,kinectAzure \WObj:=DefaultFrame;
WaitTime \InPos, 3;
SetDO \Sync, DO_1, 1;
WaitTime 1;
SetDO \Sync, DO_1, 0;
MoveL [[1208.686,431.487,1076.657],[0.28374,0.70192,-0.64768,0.08547],conf,extj],Speed001,Zone001,kinectAzure \WObj:=DefaultFrame;
WaitTime \InPos, 3;
SetDO \Sync, DO_1, 1;
WaitTime 1;
SetDO \Sync, DO_1, 0;
MoveL [[1225.156,315.251,1131.505],[0.23354,0.70639,-0.66743,0.03172],conf,extj],Speed001,Zone001,kinectAzure \WObj:=DefaultFrame;
WaitTime \InPos, 3;
SetDO \Sync, DO_1, 1;
WaitTime 1;
SetDO \Sync, DO_1, 0;
MoveL [[1236.353,191.662,1168.794],[0.18199,0.70676,-0.68329,-0.02221],conf,extj],Speed001,Zone001,kinectAzure \WObj:=DefaultFrame;
WaitTime \InPos, 3;
SetDO \Sync, DO_1, 1;
WaitTime 1;
SetDO \Sync, DO_1, 0;
MoveL [[1242.018,63.59,1187.657],[0.12938,0.70301,-0.69517,-0.07602],conf,extj],Speed001,Zone001,kinectAzure \WObj:=DefaultFrame;
WaitTime \InPos, 3;
SetDO \Sync, DO_1, 1;
WaitTime 1;
SetDO \Sync, DO_1, 0;
MoveL [[1242.018,-65.987,1187.657],[-0.07602,-0.69517,0.70301,0.12938],conf,extj],Speed001,Zone001,kinectAzure \WObj:=DefaultFrame;
WaitTime \InPos, 3;
SetDO \Sync, DO_1, 1;
WaitTime 1;
SetDO \Sync, DO_1, 0;
MoveL [[1236.353,-194.058,1168.794],[-0.02221,-0.68329,0.70676,0.18199],conf,extj],Speed001,Zone001,kinectAzure \WObj:=DefaultFrame;
WaitTime \InPos, 3;
SetDO \Sync, DO_1, 1;
WaitTime 1;
SetDO \Sync, DO_1, 0;
MoveL [[1225.156,-317.648,1131.505],[0.03172,-0.66743,0.70639,0.23354],conf,extj],Speed001,Zone001,kinectAzure \WObj:=DefaultFrame;
WaitTime \InPos, 3;
SetDO \Sync, DO_1, 1;
WaitTime 1;
SetDO \Sync, DO_1, 0;
MoveL [[1208.686,-433.884,1076.657],[0.08547,-0.64768,0.70192,0.28374],conf,extj],Speed001,Zone001,kinectAzure \WObj:=DefaultFrame;
WaitTime \InPos, 3;
SetDO \Sync, DO_1, 1;
WaitTime 1;
SetDO \Sync, DO_1, 0;
MoveL [[1288.835,-433.884,1047.395],[0.0444,-0.63004,0.70571,0.32102],conf,extj],Speed001,Zone001,kinectAzure \WObj:=DefaultFrame;
WaitTime \InPos, 3;
SetDO \Sync, DO_1, 1;
WaitTime 1;
SetDO \Sync, DO_1, 0;
MoveL [[1311.578,-317.648,1099.952],[-0.00952,-0.65267,0.70704,0.27206],conf,extj],Speed001,Zone001,kinectAzure \WObj:=DefaultFrame;
WaitTime \InPos, 3;
SetDO \Sync, DO_1, 1;
WaitTime 1;
SetDO \Sync, DO_1, 0;
MoveL [[1327.041,-194.058,1135.684],[-0.06338,-0.67151,0.70426,0.22152],conf,extj],Speed001,Zone001,kinectAzure \WObj:=DefaultFrame;
WaitTime \InPos, 3;
SetDO \Sync, DO_1, 1;
WaitTime 1;
SetDO \Sync, DO_1, 0;
MoveL [[1334.863,-65.987,1153.76],[-0.11688,-0.68644,0.69738,0.1697],conf,extj],Speed001,Zone001,kinectAzure \WObj:=DefaultFrame;
WaitTime \InPos, 3;
SetDO \Sync, DO_1, 1;
WaitTime 1;
SetDO \Sync, DO_1, 0;
MoveL [[1334.863,63.59,1153.76],[0.1697,0.69738,-0.68644,-0.11688],conf,extj],Speed001,Zone001,kinectAzure \WObj:=DefaultFrame;
WaitTime \InPos, 3;
SetDO \Sync, DO_1, 1;
WaitTime 1;
SetDO \Sync, DO_1, 0;
MoveL [[1327.041,191.662,1135.684],[0.22152,0.70426,-0.67151,-0.06338],conf,extj],Speed001,Zone001,kinectAzure \WObj:=DefaultFrame;
WaitTime \InPos, 3;
SetDO \Sync, DO_1, 1;
WaitTime 1;
SetDO \Sync, DO_1, 0;
MoveL [[1311.578,315.251,1099.952],[0.27206,0.70704,-0.65267,-0.00952],conf,extj],Speed001,Zone001,kinectAzure \WObj:=DefaultFrame;
WaitTime \InPos, 3;
SetDO \Sync, DO_1, 1;
WaitTime 1;
SetDO \Sync, DO_1, 0;
MoveL [[1288.835,431.487,1047.395],[0.32102,0.70571,-0.63004,0.0444],conf,extj],Speed001,Zone001,kinectAzure \WObj:=DefaultFrame;
WaitTime \InPos, 3;
SetDO \Sync, DO_1, 1;
WaitTime 1;
SetDO \Sync, DO_1, 0;
MoveAbsJ [[1,0,-1,1,-1,1],extj],Speed000,Zone000,kinectAzure;
SetDO \Sync, DO_0, 0;
ENDPROC
ENDMODULE