MODULE azure2400ScanRandom_T_ROB1
VAR extjoint extj := [9E9,9E9,9E9,9E9,9E9,9E9];
VAR confdata conf := [0,0,0,0];
PERS tooldata kinectAzure:=[TRUE,[[60.825,0.000,77.675],[0.50000,0.50000,0.50000,0.50000]],[2.000,[60.825,0.000,77.675],[1,0,0,0],0,0,0]];
TASK PERS wobjdata DefaultFrame:=[FALSE,TRUE,"",[[0.000,0.000,0.000],[1.00000,0.00000,0.00000,0.00000]],[[0,0,0],[1,0,0,0]]];
TASK PERS speeddata Speed000:=[500.000,180.000,5000.000,1080.000];
TASK PERS speeddata Speed001:=[250.000,180.000,5000.000,1080.000];
TASK PERS zonedata Zone000:=[FALSE,1.000,1.000,1.000,0.100,1.000,0.100];
TASK PERS zonedata Zone001:=[FALSE,0.010,0.010,0.010,0.001,0.010,0.001];
PROC Main()
ConfL \Off;
PathAccLim FALSE, TRUE\DecelMax := 0.1;
MoveAbsJ [[1,0,-1,1,-1,1],extj],Speed000,Zone000,kinectAzure;
MoveL [[1150,0,1350],[0,0.70711,0.70711,0],conf,extj],Speed001,Zone001,kinectAzure \WObj:=DefaultFrame;
WaitRob \InPos;
WaitTime 5;
MoveL [[869.2,659.496,596.73],[0.40659,0.69658,0.57852,-0.12157],conf,extj],Speed001,Zone001,kinectAzure \WObj:=DefaultFrame;
WaitRob \InPos;
WaitTime 5;
MoveL [[894.272,420.552,543.449],[0.35462,0.70452,0.61175,-0.0604],conf,extj],Speed001,Zone001,kinectAzure \WObj:=DefaultFrame;
WaitRob \InPos;
WaitTime 5;
MoveL [[750.852,437.142,848.233],[0.29995,0.70711,0.64033,0.00123],conf,extj],Speed001,Zone001,kinectAzure \WObj:=DefaultFrame;
WaitRob \InPos;
WaitTime 5;
MoveL [[677.353,297.444,1004.426],[0.243,0.70431,0.66404,0.06286],conf,extj],Speed001,Zone001,kinectAzure \WObj:=DefaultFrame;
WaitRob \InPos;
WaitTime 5;
MoveL [[759.278,80.285,830.328],[0.1842,0.69615,0.68269,0.124],conf,extj],Speed001,Zone001,kinectAzure \WObj:=DefaultFrame;
WaitRob \InPos;
WaitTime 5;
MoveL [[726.637,-86.992,899.693],[0.124,0.68269,0.69615,0.1842],conf,extj],Speed001,Zone001,kinectAzure \WObj:=DefaultFrame;
WaitRob \InPos;
WaitTime 5;
MoveL [[812.785,-212.214,716.618],[0.06286,0.66404,0.70431,0.243],conf,extj],Speed001,Zone001,kinectAzure \WObj:=DefaultFrame;
WaitRob \InPos;
WaitTime 5;
MoveL [[898.05,-275.933,535.422],[0.00123,0.64033,0.70711,0.29995],conf,extj],Speed001,Zone001,kinectAzure \WObj:=DefaultFrame;
WaitRob \InPos;
WaitTime 5;
MoveL [[871.893,-457.355,591.007],[-0.0604,0.61175,0.70452,0.35462],conf,extj],Speed001,Zone001,kinectAzure \WObj:=DefaultFrame;
WaitRob \InPos;
WaitTime 5;
MoveL [[875.081,-645.685,584.233],[-0.12157,0.57852,0.69658,0.40659],conf,extj],Speed001,Zone001,kinectAzure \WObj:=DefaultFrame;
WaitRob \InPos;
WaitTime 5;
MoveL [[958.893,-554.508,520.535],[-0.15208,0.59584,0.69056,0.38076],conf,extj],Speed001,Zone001,kinectAzure \WObj:=DefaultFrame;
WaitRob \InPos;
WaitTime 5;
MoveL [[900.84,-506.215,678.658],[-0.09132,0.62675,0.70119,0.32738],conf,extj],Speed001,Zone001,kinectAzure \WObj:=DefaultFrame;
WaitRob \InPos;
WaitTime 5;
MoveL [[912.563,-321.256,646.727],[-0.02986,0.6529,0.70648,0.27151],conf,extj],Speed001,Zone001,kinectAzure \WObj:=DefaultFrame;
WaitRob \InPos;
WaitTime 5;
MoveL [[789.009,-280.66,983.263],[0.03183,0.67408,0.70639,0.21357],conf,extj],Speed001,Zone001,kinectAzure \WObj:=DefaultFrame;
WaitRob \InPos;
WaitTime 5;
MoveL [[921.165,-58.09,623.297],[0.09327,0.69013,0.70093,0.15401],conf,extj],Speed001,Zone001,kinectAzure \WObj:=DefaultFrame;
WaitRob \InPos;
WaitTime 5;
MoveL [[911.322,60.589,650.107],[0.15401,0.70093,0.69013,0.09327],conf,extj],Speed001,Zone001,kinectAzure \WObj:=DefaultFrame;
WaitRob \InPos;
WaitTime 5;
MoveL [[860.304,225.23,789.07],[0.21357,0.70639,0.67408,0.03183],conf,extj],Speed001,Zone001,kinectAzure \WObj:=DefaultFrame;
WaitRob \InPos;
WaitTime 5;
MoveL [[837.839,422.36,850.261],[0.27151,0.70648,0.6529,-0.02986],conf,extj],Speed001,Zone001,kinectAzure \WObj:=DefaultFrame;
WaitRob \InPos;
WaitTime 5;
MoveL [[872.832,563.118,754.945],[0.32738,0.70119,0.62675,-0.09132],conf,extj],Speed001,Zone001,kinectAzure \WObj:=DefaultFrame;
WaitRob \InPos;
WaitTime 5;
MoveL [[932.201,631.957,593.239],[0.38076,0.69056,0.59584,-0.15208],conf,extj],Speed001,Zone001,kinectAzure \WObj:=DefaultFrame;
WaitRob \InPos;
WaitTime 5;
MoveL [[958.42,734.468,709.042],[0.35419,0.6832,0.612,-0.1823],conf,extj],Speed001,Zone001,kinectAzure \WObj:=DefaultFrame;
WaitRob \InPos;
WaitTime 5;
MoveL [[969.476,484.601,668.123],[0.29951,0.69649,0.64054,-0.12206],conf,extj],Speed001,Zone001,kinectAzure \WObj:=DefaultFrame;
WaitRob \InPos;
WaitTime 5;
MoveL [[977.314,308.712,639.117],[0.24254,0.70448,0.66421,-0.06089],conf,extj],Speed001,Zone001,kinectAzure \WObj:=DefaultFrame;
WaitRob \InPos;
WaitTime 5;
MoveL [[946.583,208.96,752.851],[0.18373,0.70711,0.68282,0.00074],conf,extj],Speed001,Zone001,kinectAzure \WObj:=DefaultFrame;
WaitRob \InPos;
WaitTime 5;
MoveL [[915.02,78.815,869.669],[0.12352,0.70435,0.69624,0.06237],conf,extj],Speed001,Zone001,kinectAzure \WObj:=DefaultFrame;
WaitRob \InPos;
WaitTime 5;
MoveL [[925.862,-75.178,829.542],[0.06237,0.69624,0.70435,0.12352],conf,extj],Speed001,Zone001,kinectAzure \WObj:=DefaultFrame;
WaitRob \InPos;
WaitTime 5;
MoveL [[907.839,-248.759,896.243],[0.00074,0.68282,0.70711,0.18373],conf,extj],Speed001,Zone001,kinectAzure \WObj:=DefaultFrame;
WaitRob \InPos;
WaitTime 5;
MoveL [[982.706,-299.072,619.158],[-0.06089,0.66421,0.70448,0.24254],conf,extj],Speed001,Zone001,kinectAzure \WObj:=DefaultFrame;
WaitRob \InPos;
WaitTime 5;
MoveL [[984.185,-445.117,613.687],[-0.12206,0.64054,0.69649,0.29951],conf,extj],Speed001,Zone001,kinectAzure \WObj:=DefaultFrame;
WaitRob \InPos;
WaitTime 5;
MoveL [[980.72,-648.977,626.51],[-0.1823,0.612,0.6832,0.35419],conf,extj],Speed001,Zone001,kinectAzure \WObj:=DefaultFrame;
WaitRob \InPos;
WaitTime 5;
MoveL [[1045.134,-599.153,589.905],[-0.21216,0.62698,0.67453,0.32694],conf,extj],Speed001,Zone001,kinectAzure \WObj:=DefaultFrame;
WaitRob \InPos;
WaitTime 5;
MoveL [[1041.489,-434.117,610.413],[-0.15256,0.65309,0.69045,0.27105],conf,extj],Speed001,Zone001,kinectAzure \WObj:=DefaultFrame;
WaitRob \InPos;
WaitTime 5;
MoveL [[1036.718,-301.812,637.248],[-0.09181,0.67423,0.70112,0.2131],conf,extj],Speed001,Zone001,kinectAzure \WObj:=DefaultFrame;
WaitRob \InPos;
WaitTime 5;
MoveL [[1007.625,-217.968,800.911],[-0.03035,0.69024,0.70646,0.15353],conf,extj],Speed001,Zone001,kinectAzure \WObj:=DefaultFrame;
WaitRob \InPos;
WaitTime 5;
MoveL [[984.851,-82.553,929.022],[0.03134,0.70099,0.70641,0.09279],conf,extj],Speed001,Zone001,kinectAzure \WObj:=DefaultFrame;
WaitRob \InPos;
WaitTime 5;
MoveL [[1009.662,70.151,789.45],[0.09279,0.70641,0.70099,0.03134],conf,extj],Speed001,Zone001,kinectAzure \WObj:=DefaultFrame;
WaitRob \InPos;
WaitTime 5;
MoveL [[986.3,250.614,920.868],[0.15353,0.70646,0.69024,-0.03035],conf,extj],Speed001,Zone001,kinectAzure \WObj:=DefaultFrame;
WaitRob \InPos;
WaitTime 5;
MoveL [[999.671,400.515,845.649],[0.2131,0.70112,0.67423,-0.09181],conf,extj],Speed001,Zone001,kinectAzure \WObj:=DefaultFrame;
WaitRob \InPos;
WaitTime 5;
MoveL [[1047.35,410.668,577.441],[0.27105,0.69045,0.65309,-0.15256],conf,extj],Speed001,Zone001,kinectAzure \WObj:=DefaultFrame;
WaitRob \InPos;
WaitTime 5;
MoveL [[1011.923,788.906,776.728],[0.32694,0.67453,0.62698,-0.21216],conf,extj],Speed001,Zone001,kinectAzure \WObj:=DefaultFrame;
WaitRob \InPos;
WaitTime 5;
MoveL [[1083.949,751.849,748.942],[0.29906,0.66455,0.64075,-0.24161],conf,extj],Speed001,Zone001,kinectAzure \WObj:=DefaultFrame;
WaitRob \InPos;
WaitTime 5;
MoveL [[1069.121,644.639,917.08],[0.24208,0.68308,0.66438,-0.18277],conf,extj],Speed001,Zone001,kinectAzure \WObj:=DefaultFrame;
WaitRob \InPos;
WaitTime 5;
MoveL [[1065.707,447.419,955.783],[0.18325,0.69641,0.68295,-0.12254],conf,extj],Speed001,Zone001,kinectAzure \WObj:=DefaultFrame;
WaitRob \InPos;
WaitTime 5;
MoveL [[1085.312,197.302,733.495],[0.12303,0.70444,0.69632,-0.06138],conf,extj],Speed001,Zone001,kinectAzure \WObj:=DefaultFrame;
WaitRob \InPos;
WaitTime 5;
MoveL [[1081.664,68.054,774.857],[0.06187,0.70711,0.70439,0.00025],conf,extj],Speed001,Zone001,kinectAzure \WObj:=DefaultFrame;
WaitRob \InPos;
WaitTime 5;
MoveL [[1079.06,-70.648,804.384],[0.00025,0.70439,0.70711,0.06187],conf,extj],Speed001,Zone001,kinectAzure \WObj:=DefaultFrame;
WaitRob \InPos;
WaitTime 5;
MoveL [[1063.148,-264.902,984.805],[-0.06138,0.69632,0.70444,0.12303],conf,extj],Speed001,Zone001,kinectAzure \WObj:=DefaultFrame;
WaitRob \InPos;
WaitTime 5;
MoveL [[1097.649,-277.873,593.596],[-0.12254,0.68295,0.69641,0.18325],conf,extj],Speed001,Zone001,kinectAzure \WObj:=DefaultFrame;
WaitRob \InPos;
WaitTime 5;
MoveL [[1074.359,-602.89,857.687],[-0.18277,0.66438,0.68308,0.24208],conf,extj],Speed001,Zone001,kinectAzure \WObj:=DefaultFrame;
WaitRob \InPos;
WaitTime 5;
MoveL [[1084.012,-751.131,748.227],[-0.24161,0.64075,0.66455,0.29906],conf,extj],Speed001,Zone001,kinectAzure \WObj:=DefaultFrame;
WaitRob \InPos;
WaitTime 5;
MoveL [[1150,-613.564,613.564],[-0.2706,0.65328,0.65328,0.2706],conf,extj],Speed001,Zone001,kinectAzure \WObj:=DefaultFrame;
WaitRob \InPos;
WaitTime 5;
MoveL [[1150,-658.999,941.149],[-0.21263,0.67438,0.67438,0.21263],conf,extj],Speed001,Zone001,kinectAzure \WObj:=DefaultFrame;
WaitRob \InPos;
WaitTime 5;
MoveL [[1150,-289.891,621.674],[-0.15305,0.69035,0.69035,0.15305],conf,extj],Speed001,Zone001,kinectAzure \WObj:=DefaultFrame;
WaitRob \InPos;
WaitTime 5;
MoveL [[1150,-195.809,730.771],[-0.0923,0.70106,0.70106,0.0923],conf,extj],Speed001,Zone001,kinectAzure \WObj:=DefaultFrame;
WaitRob \InPos;
WaitTime 5;
MoveL [[1150,-70.61,807.081],[-0.03084,0.70643,0.70643,0.03084],conf,extj],Speed001,Zone001,kinectAzure \WObj:=DefaultFrame;
WaitRob \InPos;
WaitTime 5;
MoveL [[1150,81.257,928.773],[0.03084,0.70643,0.70643,-0.03084],conf,extj],Speed001,Zone001,kinectAzure \WObj:=DefaultFrame;
WaitRob \InPos;
WaitTime 5;
MoveL [[1150,213.035,795.058],[0.0923,0.70106,0.70106,-0.0923],conf,extj],Speed001,Zone001,kinectAzure \WObj:=DefaultFrame;
WaitRob \InPos;
WaitTime 5;
MoveL [[1150,414.245,888.352],[0.15305,0.69035,0.69035,-0.15305],conf,extj],Speed001,Zone001,kinectAzure \WObj:=DefaultFrame;
WaitRob \InPos;
WaitTime 5;
MoveL [[1150,464.552,663.45],[0.21263,0.67438,0.67438,-0.21263],conf,extj],Speed001,Zone001,kinectAzure \WObj:=DefaultFrame;
WaitRob \InPos;
WaitTime 5;
MoveL [[1150,582.54,582.54],[0.2706,0.65328,0.65328,-0.2706],conf,extj],Speed001,Zone001,kinectAzure \WObj:=DefaultFrame;
WaitRob \InPos;
WaitTime 5;
MoveL [[1204.44,619.689,617.293],[0.24161,0.64075,0.66455,-0.29906],conf,extj],Speed001,Zone001,kinectAzure \WObj:=DefaultFrame;
WaitRob \InPos;
WaitTime 5;
MoveL [[1227.975,621.488,884.145],[0.18277,0.66438,0.68308,-0.24208],conf,extj],Speed001,Zone001,kinectAzure \WObj:=DefaultFrame;
WaitRob \InPos;
WaitTime 5;
MoveL [[1239.028,472.553,1009.476],[0.12254,0.68295,0.69641,-0.18325],conf,extj],Speed001,Zone001,kinectAzure \WObj:=DefaultFrame;
WaitRob \InPos;
WaitTime 5;
MoveL [[1217.665,206.38,767.242],[0.06138,0.69632,0.70444,-0.12303],conf,extj],Speed001,Zone001,kinectAzure \WObj:=DefaultFrame;
WaitRob \InPos;
WaitTime 5;
MoveL [[1245.727,95.332,1085.434],[-0.00025,0.70439,0.70711,-0.06187],conf,extj],Speed001,Zone001,kinectAzure \WObj:=DefaultFrame;
WaitRob \InPos;
WaitTime 5;
MoveL [[1248.666,-98.259,1118.761],[-0.06187,0.70711,0.70439,-0.00025],conf,extj],Speed001,Zone001,kinectAzure \WObj:=DefaultFrame;
WaitRob \InPos;
WaitTime 5;
MoveL [[1207.699,-175.984,654.241],[-0.12303,0.70444,0.69632,0.06138],conf,extj],Speed001,Zone001,kinectAzure \WObj:=DefaultFrame;
WaitRob \InPos;
WaitTime 5;
MoveL [[1222.749,-386.146,824.892],[-0.18325,0.69641,0.68295,0.12254],conf,extj],Speed001,Zone001,kinectAzure \WObj:=DefaultFrame;
WaitRob \InPos;
WaitTime 5;
MoveL [[1204.391,-433.513,616.728],[-0.24208,0.68308,0.66438,0.18277],conf,extj],Speed001,Zone001,kinectAzure \WObj:=DefaultFrame;
WaitRob \InPos;
WaitTime 5;
MoveL [[1205.712,-634.165,631.713],[-0.29906,0.66455,0.64075,0.24161],conf,extj],Speed001,Zone001,kinectAzure \WObj:=DefaultFrame;
WaitRob \InPos;
WaitTime 5;
MoveL [[1271.464,-693.991,683.278],[-0.32694,0.67453,0.62698,0.21216],conf,extj],Speed001,Zone001,kinectAzure \WObj:=DefaultFrame;
WaitRob \InPos;
WaitTime 5;
MoveL [[1313.343,-653.481,918.862],[-0.27105,0.69045,0.65309,0.15256],conf,extj],Speed001,Zone001,kinectAzure \WObj:=DefaultFrame;
WaitRob \InPos;
WaitTime 5;
MoveL [[1310.161,-426.71,900.958],[-0.2131,0.70112,0.67423,0.09181],conf,extj],Speed001,Zone001,kinectAzure \WObj:=DefaultFrame;
WaitRob \InPos;
WaitTime 5;
MoveL [[1318.658,-258.205,948.76],[-0.15353,0.70646,0.69024,0.03035],conf,extj],Speed001,Zone001,kinectAzure \WObj:=DefaultFrame;
WaitRob \InPos;
WaitTime 5;
MoveL [[1281.884,-65.925,741.893],[-0.09279,0.70641,0.70099,-0.03134],conf,extj],Speed001,Zone001,kinectAzure \WObj:=DefaultFrame;
WaitRob \InPos;
WaitTime 5;
MoveL [[1296.631,73.296,824.849],[-0.03134,0.70099,0.70641,-0.09279],conf,extj],Speed001,Zone001,kinectAzure \WObj:=DefaultFrame;
WaitRob \InPos;
WaitTime 5;
MoveL [[1279.786,198.694,730.089],[0.03035,0.69024,0.70646,-0.15353],conf,extj],Speed001,Zone001,kinectAzure \WObj:=DefaultFrame;
WaitRob \InPos;
WaitTime 5;
MoveL [[1263.924,303.523,640.86],[0.09181,0.67423,0.70112,-0.2131],conf,extj],Speed001,Zone001,kinectAzure \WObj:=DefaultFrame;
WaitRob \InPos;
WaitTime 5;
MoveL [[1283.321,533.373,749.977],[0.15256,0.65309,0.69045,-0.27105],conf,extj],Speed001,Zone001,kinectAzure \WObj:=DefaultFrame;
WaitRob \InPos;
WaitTime 5;
MoveL [[1251.16,577.983,569.061],[0.21216,0.62698,0.67453,-0.32694],conf,extj],Speed001,Zone001,kinectAzure \WObj:=DefaultFrame;
WaitRob \InPos;
WaitTime 5;
MoveL [[1277.594,489.164,472.23],[0.1823,0.612,0.6832,-0.35419],conf,extj],Speed001,Zone001,kinectAzure \WObj:=DefaultFrame;
WaitRob \InPos;
WaitTime 5;
MoveL [[1306.296,419.565,578.457],[0.12206,0.64054,0.69649,-0.29951],conf,extj],Speed001,Zone001,kinectAzure \WObj:=DefaultFrame;
WaitRob \InPos;
WaitTime 5;
MoveL [[1311.808,289.264,598.855],[0.06089,0.66421,0.70448,-0.24254],conf,extj],Speed001,Zone001,kinectAzure \WObj:=DefaultFrame;
WaitRob \InPos;
WaitTime 5;
MoveL [[1355.458,211.056,760.405],[-0.00074,0.68282,0.70711,-0.18373],conf,extj],Speed001,Zone001,kinectAzure \WObj:=DefaultFrame;
WaitRob \InPos;
WaitTime 5;
MoveL [[1375.742,75.716,835.476],[-0.06237,0.69624,0.70435,-0.12352],conf,extj],Speed001,Zone001,kinectAzure \WObj:=DefaultFrame;
WaitRob \InPos;
WaitTime 5;
MoveL [[1345.899,-65.706,725.029],[-0.12352,0.70435,0.69624,-0.06237],conf,extj],Speed001,Zone001,kinectAzure \WObj:=DefaultFrame;
WaitRob \InPos;
WaitTime 5;
MoveL [[1342.064,-197.298,710.835],[-0.18373,0.70711,0.68282,-0.00074],conf,extj],Speed001,Zone001,kinectAzure \WObj:=DefaultFrame;
WaitRob \InPos;
WaitTime 5;
MoveL [[1391.847,-432.352,895.084],[-0.24254,0.70448,0.66421,0.06089],conf,extj],Speed001,Zone001,kinectAzure \WObj:=DefaultFrame;
WaitRob \InPos;
WaitTime 5;
MoveL [[1307.494,-422.778,582.888],[-0.29951,0.69649,0.64054,0.12206],conf,extj],Speed001,Zone001,kinectAzure \WObj:=DefaultFrame;
WaitRob \InPos;
WaitTime 5;
MoveL [[1317.837,-643.445,621.17],[-0.35419,0.6832,0.612,0.1823],conf,extj],Speed001,Zone001,kinectAzure \WObj:=DefaultFrame;
WaitRob \InPos;
WaitTime 5;
MoveL [[1334.099,-534.174,501.448],[-0.38076,0.69056,0.59584,0.15208],conf,extj],Speed001,Zone001,kinectAzure \WObj:=DefaultFrame;
WaitRob \InPos;
WaitTime 5;
MoveL [[1379.452,-466.176,624.98],[-0.32738,0.70119,0.62675,0.09132],conf,extj],Speed001,Zone001,kinectAzure \WObj:=DefaultFrame;
WaitRob \InPos;
WaitTime 5;
MoveL [[1495.926,-468.044,942.228],[-0.27151,0.70648,0.6529,0.02986],conf,extj],Speed001,Zone001,kinectAzure \WObj:=DefaultFrame;
WaitRob \InPos;
WaitTime 5;
MoveL [[1490.097,-264.415,926.352],[-0.21357,0.70639,0.67408,-0.03183],conf,extj],Speed001,Zone001,kinectAzure \WObj:=DefaultFrame;
WaitRob \InPos;
WaitTime 5;
MoveL [[1413.177,-66.808,716.838],[-0.15401,0.70093,0.69013,-0.09327],conf,extj],Speed001,Zone001,kinectAzure \WObj:=DefaultFrame;
WaitRob \InPos;
WaitTime 5;
MoveL [[1405.78,64.93,696.69],[-0.09327,0.69013,0.70093,-0.15401],conf,extj],Speed001,Zone001,kinectAzure \WObj:=DefaultFrame;
WaitRob \InPos;
WaitTime 5;
MoveL [[1510.905,280.593,983.028],[-0.03183,0.67408,0.70639,-0.21357],conf,extj],Speed001,Zone001,kinectAzure \WObj:=DefaultFrame;
WaitRob \InPos;
WaitTime 5;
MoveL [[1376.672,306.691,617.406],[0.02986,0.6529,0.70648,-0.27151],conf,extj],Speed001,Zone001,kinectAzure \WObj:=DefaultFrame;
WaitRob \InPos;
WaitTime 5;
MoveL [[1389.477,486.542,652.283],[0.09132,0.62675,0.70119,-0.32738],conf,extj],Speed001,Zone001,kinectAzure \WObj:=DefaultFrame;
WaitRob \InPos;
WaitTime 5;
MoveL [[1366.317,627.656,589.202],[0.15208,0.59584,0.69056,-0.38076],conf,extj],Speed001,Zone001,kinectAzure \WObj:=DefaultFrame;
WaitRob \InPos;
WaitTime 5;
MoveL [[1362.171,498.311,450.886],[0.12157,0.57852,0.69658,-0.40659],conf,extj],Speed001,Zone001,kinectAzure \WObj:=DefaultFrame;
WaitRob \InPos;
WaitTime 5;
MoveL [[1468.473,523.739,676.789],[0.0604,0.61175,0.70452,-0.35462],conf,extj],Speed001,Zone001,kinectAzure \WObj:=DefaultFrame;
WaitRob \InPos;
WaitTime 5;
MoveL [[1550.024,438.101,850.094],[-0.00123,0.64033,0.70711,-0.29995],conf,extj],Speed001,Zone001,kinectAzure \WObj:=DefaultFrame;
WaitRob \InPos;
WaitTime 5;
MoveL [[1419.628,169.681,572.988],[-0.06286,0.66404,0.70431,-0.243],conf,extj],Speed001,Zone001,kinectAzure \WObj:=DefaultFrame;
WaitRob \InPos;
WaitTime 5;
MoveL [[1497.949,71.496,739.428],[-0.124,0.68269,0.69615,-0.1842],conf,extj],Speed001,Zone001,kinectAzure \WObj:=DefaultFrame;
WaitRob \InPos;
WaitTime 5;
MoveL [[1563.997,-85.068,879.789],[-0.1842,0.69615,0.68269,-0.124],conf,extj],Speed001,Zone001,kinectAzure \WObj:=DefaultFrame;
WaitRob \InPos;
WaitTime 5;
MoveL [[1453.585,-191.051,645.151],[-0.243,0.70431,0.66404,-0.06286],conf,extj],Speed001,Zone001,kinectAzure \WObj:=DefaultFrame;
WaitRob \InPos;
WaitTime 5;
MoveL [[1424.182,-300.28,582.666],[-0.29995,0.70711,0.64033,-0.00123],conf,extj],Speed001,Zone001,kinectAzure \WObj:=DefaultFrame;
WaitRob \InPos;
WaitTime 5;
MoveL [[1519.121,-607.032,784.423],[-0.35462,0.70452,0.61175,0.0604],conf,extj],Speed001,Zone001,kinectAzure \WObj:=DefaultFrame;
WaitRob \InPos;
WaitTime 5;
MoveL [[1368.246,-512.58,463.797],[-0.40659,0.69658,0.57852,0.12157],conf,extj],Speed001,Zone001,kinectAzure \WObj:=DefaultFrame;
WaitRob \InPos;
WaitTime 5;
MoveAbsJ [[1,0,-1,1,-1,1],extj],Speed000,Zone000,kinectAzure;
ENDPROC
ENDMODULE