MODULE camCalib_roll_T_ROB1
VAR extjoint extj := [9E9,9E9,9E9,9E9,9E9,9E9];
VAR confdata conf := [0,0,0,0];
PERS tooldata kinectAzure:=[TRUE,[[50.721,-32.000,77.725],[-0.50000,0.50000,-0.50000,0.50000]],[2.000,[50.721,-32.000,77.725],[1,0,0,0],0,0,0]];
TASK PERS wobjdata DefaultFrame:=[FALSE,TRUE,"",[[0.000,0.000,0.000],[1.00000,0.00000,0.00000,0.00000]],[[0,0,0],[1,0,0,0]]];
TASK PERS speeddata Speed000:=[500.000,180.000,5000.000,1080.000];
TASK PERS speeddata Speed001:=[250.000,180.000,5000.000,1080.000];
TASK PERS zonedata Zone000:=[FALSE,1.000,1.000,1.000,0.100,1.000,0.100];
TASK PERS zonedata Zone001:=[FALSE,0.010,0.010,0.010,0.001,0.010,0.001];
PROC Main()
ConfL \Off;
PathAccLim FALSE, TRUE\DecelMax := .1;
SetDO \Sync, DO_0, 0;
SetDO \Sync, DO_1, 0;
MoveAbsJ [[90,0,-1,1,-1,1],extj],Speed000,Zone000,kinectAzure;
SetDO \Sync, DO_0, 1;
MoveL [[-598.249,897.35,562.881],[-0.15032,0.87951,-0.20131,0.40416],conf,extj],Speed001,Zone001,kinectAzure \WObj:=DefaultFrame;
WaitTime \InPos, 2;
SetDO \Sync, DO_1, 1;
WaitTime 0.5;
SetDO \Sync, DO_1, 0;
MoveL [[-606.916,857.266,674.221],[-0.25113,0.88161,-0.20296,0.34424],conf,extj],Speed001,Zone001,kinectAzure \WObj:=DefaultFrame;
WaitTime \InPos, 2;
SetDO \Sync, DO_1, 1;
WaitTime 0.5;
SetDO \Sync, DO_1, 0;
MoveL [[-562.859,832.962,741.727],[-0.26883,0.91591,-0.15791,0.25279],conf,extj],Speed001,Zone001,kinectAzure \WObj:=DefaultFrame;
WaitTime \InPos, 2;
SetDO \Sync, DO_1, 1;
WaitTime 0.5;
SetDO \Sync, DO_1, 0;
MoveL [[-477.775,828.396,754.408],[-0.22418,0.93917,-0.05962,0.25329],conf,extj],Speed001,Zone001,kinectAzure \WObj:=DefaultFrame;
WaitTime \InPos, 2;
SetDO \Sync, DO_1, 1;
WaitTime 0.5;
SetDO \Sync, DO_1, 0;
MoveL [[-444.853,791.762,856.165],[-0.13449,0.94988,0.1069,0.26116],conf,extj],Speed001,Zone001,kinectAzure \WObj:=DefaultFrame;
WaitTime \InPos, 2;
SetDO \Sync, DO_1, 1;
WaitTime 0.5;
SetDO \Sync, DO_1, 0;
MoveL [[-273.694,862.404,659.95],[-0.23817,0.95692,-0.04621,0.15951],conf,extj],Speed001,Zone001,kinectAzure \WObj:=DefaultFrame;
WaitTime \InPos, 2;
SetDO \Sync, DO_1, 1;
WaitTime 0.5;
SetDO \Sync, DO_1, 0;
MoveL [[-288.832,771.367,912.814],[-0.26521,0.92991,-0.22252,0.12416],conf,extj],Speed001,Zone001,kinectAzure \WObj:=DefaultFrame;
WaitTime \InPos, 2;
SetDO \Sync, DO_1, 1;
WaitTime 0.5;
SetDO \Sync, DO_1, 0;
MoveL [[-155.17,849.32,696.291],[-0.1415,0.98812,0.01764,0.05728],conf,extj],Speed001,Zone001,kinectAzure \WObj:=DefaultFrame;
WaitTime \InPos, 2;
SetDO \Sync, DO_1, 1;
WaitTime 0.5;
SetDO \Sync, DO_1, 0;
MoveL [[-103.851,817.783,783.889],[-0.27351,0.93115,-0.24054,-0.01697],conf,extj],Speed001,Zone001,kinectAzure \WObj:=DefaultFrame;
WaitTime \InPos, 2;
SetDO \Sync, DO_1, 1;
WaitTime 0.5;
SetDO \Sync, DO_1, 0;
MoveL [[-42.3,753.566,962.256],[-0.15505,0.97988,0.1086,0.0633],conf,extj],Speed001,Zone001,kinectAzure \WObj:=DefaultFrame;
WaitTime \InPos, 2;
SetDO \Sync, DO_1, 1;
WaitTime 0.5;
SetDO \Sync, DO_1, 0;
MoveL [[39.494,776.545,898.431],[-0.16546,0.98015,0.10566,0.02757],conf,extj],Speed001,Zone001,kinectAzure \WObj:=DefaultFrame;
WaitTime \InPos, 2;
SetDO \Sync, DO_1, 1;
WaitTime 0.5;
SetDO \Sync, DO_1, 0;
MoveL [[103.286,819.318,779.624],[-0.18018,0.98347,0.01746,-0.0035],conf,extj],Speed001,Zone001,kinectAzure \WObj:=DefaultFrame;
WaitTime \InPos, 2;
SetDO \Sync, DO_1, 1;
WaitTime 0.5;
SetDO \Sync, DO_1, 0;
MoveL [[158.404,844.095,710.802],[-0.15707,0.96884,-0.03657,-0.18798],conf,extj],Speed001,Zone001,kinectAzure \WObj:=DefaultFrame;
WaitTime \InPos, 2;
SetDO \Sync, DO_1, 1;
WaitTime 0.5;
SetDO \Sync, DO_1, 0;
MoveL [[214.961,855.417,679.355],[-0.21808,0.97027,0.02695,-0.10145],conf,extj],Speed001,Zone001,kinectAzure \WObj:=DefaultFrame;
WaitTime \InPos, 2;
SetDO \Sync, DO_1, 1;
WaitTime 0.5;
SetDO \Sync, DO_1, 0;
MoveL [[288.224,849.789,694.986],[-0.07419,0.9289,-0.18556,-0.3118],conf,extj],Speed001,Zone001,kinectAzure \WObj:=DefaultFrame;
WaitTime \InPos, 2;
SetDO \Sync, DO_1, 1;
WaitTime 0.5;
SetDO \Sync, DO_1, 0;
MoveL [[458.269,782.465,881.987],[-0.21585,0.92213,0.27098,-0.17219],conf,extj],Speed001,Zone001,kinectAzure \WObj:=DefaultFrame;
WaitTime \InPos, 2;
SetDO \Sync, DO_1, 1;
WaitTime 0.5;
SetDO \Sync, DO_1, 0;
MoveL [[497.631,817.109,785.761],[-0.03709,0.94052,-0.10693,-0.32032],conf,extj],Speed001,Zone001,kinectAzure \WObj:=DefaultFrame;
WaitTime \InPos, 2;
SetDO \Sync, DO_1, 1;
WaitTime 0.5;
SetDO \Sync, DO_1, 0;
MoveL [[399.544,910.443,526.514],[-0.18786,0.88737,-0.21929,-0.35942],conf,extj],Speed001,Zone001,kinectAzure \WObj:=DefaultFrame;
WaitTime \InPos, 2;
SetDO \Sync, DO_1, 1;
WaitTime 0.5;
SetDO \Sync, DO_1, 0;
MoveL [[434.001,926.423,482.13],[-0.17102,0.94468,-0.05404,-0.27461],conf,extj],Speed001,Zone001,kinectAzure \WObj:=DefaultFrame;
WaitTime \InPos, 2;
SetDO \Sync, DO_1, 1;
WaitTime 0.5;
SetDO \Sync, DO_1, 0;
MoveL [[570.484,906.756,536.757],[-0.22653,0.89649,0.13926,-0.3544],conf,extj],Speed001,Zone001,kinectAzure \WObj:=DefaultFrame;
WaitTime \InPos, 2;
SetDO \Sync, DO_1, 1;
WaitTime 0.5;
SetDO \Sync, DO_1, 0;
MoveL [[510.721,967.816,493.319],[-0.11275,0.9323,-0.13354,-0.31667],conf,extj],Speed001,Zone001,kinectAzure \WObj:=DefaultFrame;
WaitTime \InPos, 2;
SetDO \Sync, DO_1, 1;
WaitTime 0.5;
SetDO \Sync, DO_1, 0;
MoveL [[554.577,930.529,632.476],[0.01579,0.9448,-0.1015,-0.31112],conf,extj],Speed001,Zone001,kinectAzure \WObj:=DefaultFrame;
WaitTime \InPos, 2;
SetDO \Sync, DO_1, 1;
WaitTime 0.5;
SetDO \Sync, DO_1, 0;
MoveL [[578.469,890.306,782.589],[-0.11205,0.93055,-0.23073,-0.26131],conf,extj],Speed001,Zone001,kinectAzure \WObj:=DefaultFrame;
WaitTime \InPos, 2;
SetDO \Sync, DO_1, 1;
WaitTime 0.5;
SetDO \Sync, DO_1, 0;
MoveL [[460.74,899.876,746.875],[-0.18758,0.9196,0.26437,-0.22195],conf,extj],Speed001,Zone001,kinectAzure \WObj:=DefaultFrame;
WaitTime \InPos, 2;
SetDO \Sync, DO_1, 1;
WaitTime 0.5;
SetDO \Sync, DO_1, 0;
MoveL [[339.414,920.307,670.625],[-0.15898,0.94363,-0.07915,-0.27933],conf,extj],Speed001,Zone001,kinectAzure \WObj:=DefaultFrame;
WaitTime \InPos, 2;
SetDO \Sync, DO_1, 1;
WaitTime 0.5;
SetDO \Sync, DO_1, 0;
MoveL [[364.809,858.024,903.067],[-0.15099,0.96353,0.0104,-0.22068],conf,extj],Speed001,Zone001,kinectAzure \WObj:=DefaultFrame;
WaitTime \InPos, 2;
SetDO \Sync, DO_1, 1;
WaitTime 0.5;
SetDO \Sync, DO_1, 0;
MoveL [[275.827,860.208,894.917],[-0.00161,0.97109,-0.1914,-0.14264],conf,extj],Speed001,Zone001,kinectAzure \WObj:=DefaultFrame;
WaitTime \InPos, 2;
SetDO \Sync, DO_1, 1;
WaitTime 0.5;
SetDO \Sync, DO_1, 0;
MoveL [[168.316,892.237,775.384],[-0.04921,0.98361,-0.06988,-0.15878],conf,extj],Speed001,Zone001,kinectAzure \WObj:=DefaultFrame;
WaitTime \InPos, 2;
SetDO \Sync, DO_1, 1;
WaitTime 0.5;
SetDO \Sync, DO_1, 0;
MoveL [[123.014,844.577,953.252],[-0.10167,0.9885,-0.00827,-0.11164],conf,extj],Speed001,Zone001,kinectAzure \WObj:=DefaultFrame;
WaitTime \InPos, 2;
SetDO \Sync, DO_1, 1;
WaitTime 0.5;
SetDO \Sync, DO_1, 0;
MoveL [[30.615,908.423,714.977],[-0.12378,0.96805,0.21753,0.01546],conf,extj],Speed001,Zone001,kinectAzure \WObj:=DefaultFrame;
WaitTime \InPos, 2;
SetDO \Sync, DO_1, 1;
WaitTime 0.5;
SetDO \Sync, DO_1, 0;
MoveL [[-43.142,830.029,1007.544],[-0.11947,0.97867,0.15664,0.05824],conf,extj],Speed001,Zone001,kinectAzure \WObj:=DefaultFrame;
WaitTime \InPos, 2;
SetDO \Sync, DO_1, 1;
WaitTime 0.5;
SetDO \Sync, DO_1, 0;
MoveL [[-121.871,846.951,944.392],[-0.1706,0.98256,0.01779,0.07173],conf,extj],Speed001,Zone001,kinectAzure \WObj:=DefaultFrame;
WaitTime \InPos, 2;
SetDO \Sync, DO_1, 1;
WaitTime 0.5;
SetDO \Sync, DO_1, 0;
MoveL [[-165.858,895.271,764.058],[-0.15279,0.97729,0.0952,0.11181],conf,extj],Speed001,Zone001,kinectAzure \WObj:=DefaultFrame;
WaitTime \InPos, 2;
SetDO \Sync, DO_1, 1;
WaitTime 0.5;
SetDO \Sync, DO_1, 0;
MoveL [[-256.376,877.117,831.809],[-0.11647,0.93059,-0.28364,0.19995],conf,extj],Speed001,Zone001,kinectAzure \WObj:=DefaultFrame;
WaitTime \InPos, 2;
SetDO \Sync, DO_1, 1;
WaitTime 0.5;
SetDO \Sync, DO_1, 0;
MoveL [[-239.348,941.241,592.495],[-0.18208,0.94872,-0.09713,0.23946],conf,extj],Speed001,Zone001,kinectAzure \WObj:=DefaultFrame;
WaitTime \InPos, 2;
SetDO \Sync, DO_1, 1;
WaitTime 0.5;
SetDO \Sync, DO_1, 0;
MoveL [[-357.806,910.569,706.965],[-0.14647,0.93279,-0.17305,0.28017],conf,extj],Speed001,Zone001,kinectAzure \WObj:=DefaultFrame;
WaitTime \InPos, 2;
SetDO \Sync, DO_1, 1;
WaitTime 0.5;
SetDO \Sync, DO_1, 0;
MoveL [[-379.788,935.037,615.648],[-0.05686,0.9348,0.19836,0.2891],conf,extj],Speed001,Zone001,kinectAzure \WObj:=DefaultFrame;
WaitTime \InPos, 2;
SetDO \Sync, DO_1, 1;
WaitTime 0.5;
SetDO \Sync, DO_1, 0;
MoveL [[-431.82,943.466,584.194],[-0.12316,0.93186,0.02121,0.34061],conf,extj],Speed001,Zone001,kinectAzure \WObj:=DefaultFrame;
WaitTime \InPos, 2;
SetDO \Sync, DO_1, 1;
WaitTime 0.5;
SetDO \Sync, DO_1, 0;
MoveL [[-552.943,931.028,630.613],[-0.07226,0.92447,0.02074,0.37377],conf,extj],Speed001,Zone001,kinectAzure \WObj:=DefaultFrame;
WaitTime \InPos, 2;
SetDO \Sync, DO_1, 1;
WaitTime 0.5;
SetDO \Sync, DO_1, 0;
MoveL [[-671.92,926.094,649.025],[-0.2615,0.85936,-0.24501,0.36481],conf,extj],Speed001,Zone001,kinectAzure \WObj:=DefaultFrame;
WaitTime \InPos, 2;
SetDO \Sync, DO_1, 1;
WaitTime 0.5;
SetDO \Sync, DO_1, 0;
MoveL [[-685.846,978.547,675.006],[-0.12512,0.91282,-0.01948,0.38824],conf,extj],Speed001,Zone001,kinectAzure \WObj:=DefaultFrame;
WaitTime \InPos, 2;
SetDO \Sync, DO_1, 1;
WaitTime 0.5;
SetDO \Sync, DO_1, 0;
MoveL [[-465.235,1002.727,540.621],[-0.20779,0.92466,-0.10118,0.30263],conf,extj],Speed001,Zone001,kinectAzure \WObj:=DefaultFrame;
WaitTime \InPos, 2;
SetDO \Sync, DO_1, 1;
WaitTime 0.5;
SetDO \Sync, DO_1, 0;
MoveL [[-523.919,970.056,722.197],[-0.02553,0.93176,0.16154,0.32416],conf,extj],Speed001,Zone001,kinectAzure \WObj:=DefaultFrame;
WaitTime \InPos, 2;
SetDO \Sync, DO_1, 1;
WaitTime 0.5;
SetDO \Sync, DO_1, 0;
MoveL [[-468.858,960.662,774.41],[-0.03712,0.95182,0.0839,0.29261],conf,extj],Speed001,Zone001,kinectAzure \WObj:=DefaultFrame;
WaitTime \InPos, 2;
SetDO \Sync, DO_1, 1;
WaitTime 0.5;
SetDO \Sync, DO_1, 0;
MoveL [[-397.024,956.185,799.291],[-0.22039,0.93508,-0.20235,0.19002],conf,extj],Speed001,Zone001,kinectAzure \WObj:=DefaultFrame;
WaitTime \InPos, 2;
SetDO \Sync, DO_1, 1;
WaitTime 0.5;
SetDO \Sync, DO_1, 0;
MoveL [[-330.294,950.103,833.093],[-0.036,0.96115,-0.1839,0.20265],conf,extj],Speed001,Zone001,kinectAzure \WObj:=DefaultFrame;
WaitTime \InPos, 2;
SetDO \Sync, DO_1, 1;
WaitTime 0.5;
SetDO \Sync, DO_1, 0;
MoveL [[-279.754,933.598,924.825],[-0.06424,0.98809,0.07218,0.11976],conf,extj],Speed001,Zone001,kinectAzure \WObj:=DefaultFrame;
WaitTime \InPos, 2;
SetDO \Sync, DO_1, 1;
WaitTime 0.5;
SetDO \Sync, DO_1, 0;
MoveL [[-194.083,936.086,910.993],[-0.10322,0.99268,0.01876,0.05987],conf,extj],Speed001,Zone001,kinectAzure \WObj:=DefaultFrame;
WaitTime \InPos, 2;
SetDO \Sync, DO_1, 1;
WaitTime 0.5;
SetDO \Sync, DO_1, 0;
MoveL [[-100.987,956.533,797.357],[-0.06272,0.97994,0.17757,0.06527],conf,extj],Speed001,Zone001,kinectAzure \WObj:=DefaultFrame;
WaitTime \InPos, 2;
SetDO \Sync, DO_1, 1;
WaitTime 0.5;
SetDO \Sync, DO_1, 0;
MoveL [[-28.856,976.454,686.639],[-0.06765,0.986,0.14019,0.05971],conf,extj],Speed001,Zone001,kinectAzure \WObj:=DefaultFrame;
WaitTime \InPos, 2;
SetDO \Sync, DO_1, 1;
WaitTime 0.5;
SetDO \Sync, DO_1, 0;
MoveL [[42.13,919.62,1002.51],[-0.0499,0.99732,0.04979,-0.01962],conf,extj],Speed001,Zone001,kinectAzure \WObj:=DefaultFrame;
WaitTime \InPos, 2;
SetDO \Sync, DO_1, 1;
WaitTime 0.5;
SetDO \Sync, DO_1, 0;
MoveL [[85.844,978.045,677.797],[-0.11096,0.97523,-0.10142,-0.16224],conf,extj],Speed001,Zone001,kinectAzure \WObj:=DefaultFrame;
WaitTime \InPos, 2;
SetDO \Sync, DO_1, 1;
WaitTime 0.5;
SetDO \Sync, DO_1, 0;
MoveL [[142.899,979.314,670.744],[0.00642,0.99427,-0.04451,-0.09701],conf,extj],Speed001,Zone001,kinectAzure \WObj:=DefaultFrame;
WaitTime \InPos, 2;
SetDO \Sync, DO_1, 1;
WaitTime 0.5;
SetDO \Sync, DO_1, 0;
MoveL [[236.576,959.281,782.086],[-0.14315,0.98157,0.00956,-0.12627],conf,extj],Speed001,Zone001,kinectAzure \WObj:=DefaultFrame;
WaitTime \InPos, 2;
SetDO \Sync, DO_1, 1;
WaitTime 0.5;
SetDO \Sync, DO_1, 0;
MoveL [[364.545,934.559,919.484],[-0.12663,0.96019,0.17093,-0.18107],conf,extj],Speed001,Zone001,kinectAzure \WObj:=DefaultFrame;
WaitTime \InPos, 2;
SetDO \Sync, DO_1, 1;
WaitTime 0.5;
SetDO \Sync, DO_1, 0;
MoveL [[456.64,934.59,919.31],[0.00365,0.9431,-0.15562,-0.29382],conf,extj],Speed001,Zone001,kinectAzure \WObj:=DefaultFrame;
WaitTime \InPos, 2;
SetDO \Sync, DO_1, 1;
WaitTime 0.5;
SetDO \Sync, DO_1, 0;
MoveL [[512.205,947.779,846.006],[-0.00847,0.93483,-0.1259,-0.33193],conf,extj],Speed001,Zone001,kinectAzure \WObj:=DefaultFrame;
WaitTime \InPos, 2;
SetDO \Sync, DO_1, 1;
WaitTime 0.5;
SetDO \Sync, DO_1, 0;
MoveL [[505.802,974.55,697.223],[-0.08752,0.92442,-0.09901,-0.35774],conf,extj],Speed001,Zone001,kinectAzure \WObj:=DefaultFrame;
WaitTime \InPos, 2;
SetDO \Sync, DO_1, 1;
WaitTime 0.5;
SetDO \Sync, DO_1, 0;
MoveL [[668.655,960.195,777.002],[-0.04004,0.90304,-0.14839,-0.40112],conf,extj],Speed001,Zone001,kinectAzure \WObj:=DefaultFrame;
WaitTime \InPos, 2;
SetDO \Sync, DO_1, 1;
WaitTime 0.5;
SetDO \Sync, DO_1, 0;
MoveL [[723.715,971.841,712.277],[-0.10552,0.91871,-0.07841,-0.3724],conf,extj],Speed001,Zone001,kinectAzure \WObj:=DefaultFrame;
WaitTime \InPos, 2;
SetDO \Sync, DO_1, 1;
WaitTime 0.5;
SetDO \Sync, DO_1, 0;
MoveL [[733.387,1030.982,730.132],[-0.04115,0.93653,-0.05323,-0.34408],conf,extj],Speed001,Zone001,kinectAzure \WObj:=DefaultFrame;
WaitTime \InPos, 2;
SetDO \Sync, DO_1, 1;
WaitTime 0.5;
SetDO \Sync, DO_1, 0;
MoveL [[537.756,1040.248,632.11],[-0.06985,0.92486,0.16284,-0.33651],conf,extj],Speed001,Zone001,kinectAzure \WObj:=DefaultFrame;
WaitTime \InPos, 2;
SetDO \Sync, DO_1, 1;
WaitTime 0.5;
SetDO \Sync, DO_1, 0;
MoveL [[546.303,1027.994,761.749],[0.05764,0.91466,-0.16604,-0.36401],conf,extj],Speed001,Zone001,kinectAzure \WObj:=DefaultFrame;
WaitTime \InPos, 2;
SetDO \Sync, DO_1, 1;
WaitTime 0.5;
SetDO \Sync, DO_1, 0;
MoveL [[483.872,1023.58,808.439],[0.0764,0.93221,-0.16537,-0.31274],conf,extj],Speed001,Zone001,kinectAzure \WObj:=DefaultFrame;
WaitTime \InPos, 2;
SetDO \Sync, DO_1, 1;
WaitTime 0.5;
SetDO \Sync, DO_1, 0;
MoveL [[399.925,1023.014,814.429],[-0.10143,0.94875,0.21728,-0.20585],conf,extj],Speed001,Zone001,kinectAzure \WObj:=DefaultFrame;
WaitTime \InPos, 2;
SetDO \Sync, DO_1, 1;
WaitTime 0.5;
SetDO \Sync, DO_1, 0;
MoveL [[260.204,1037.244,663.886],[-0.10937,0.94936,-0.17975,-0.23333],conf,extj],Speed001,Zone001,kinectAzure \WObj:=DefaultFrame;
WaitTime \InPos, 2;
SetDO \Sync, DO_1, 1;
WaitTime 0.5;
SetDO \Sync, DO_1, 0;
MoveL [[233.367,1026.232,780.388],[-0.06717,0.97541,0.17613,-0.11421],conf,extj],Speed001,Zone001,kinectAzure \WObj:=DefaultFrame;
WaitTime \InPos, 2;
SetDO \Sync, DO_1, 1;
WaitTime 0.5;
SetDO \Sync, DO_1, 0;
MoveL [[161.879,1027.345,768.608],[-0.10887,0.98873,-0.07898,-0.0657],conf,extj],Speed001,Zone001,kinectAzure \WObj:=DefaultFrame;
WaitTime \InPos, 2;
SetDO \Sync, DO_1, 1;
WaitTime 0.5;
SetDO \Sync, DO_1, 0;
MoveL [[95.268,1028.075,760.891],[0.04912,0.97762,-0.15781,-0.13014],conf,extj],Speed001,Zone001,kinectAzure \WObj:=DefaultFrame;
WaitTime \InPos, 2;
SetDO \Sync, DO_1, 1;
WaitTime 0.5;
SetDO \Sync, DO_1, 0;
MoveL [[37.081,1015.627,892.569],[-0.02582,0.9887,0.14747,-0.00821],conf,extj],Speed001,Zone001,kinectAzure \WObj:=DefaultFrame;
WaitTime \InPos, 2;
SetDO \Sync, DO_1, 1;
WaitTime 0.5;
SetDO \Sync, DO_1, 0;
MoveL [[-29.507,1032.861,710.256],[0.02039,0.96093,-0.25279,-0.11088],conf,extj],Speed001,Zone001,kinectAzure \WObj:=DefaultFrame;
WaitTime \InPos, 2;
SetDO \Sync, DO_1, 1;
WaitTime 0.5;
SetDO \Sync, DO_1, 0;
MoveL [[-128.46,1003.015,1025.99],[-0.00584,0.99641,0.00324,0.08436],conf,extj],Speed001,Zone001,kinectAzure \WObj:=DefaultFrame;
WaitTime \InPos, 2;
SetDO \Sync, DO_1, 1;
WaitTime 0.5;
SetDO \Sync, DO_1, 0;
MoveL [[-207.7,1006.779,986.172],[-0.0073,0.99463,-0.08671,0.05601],conf,extj],Speed001,Zone001,kinectAzure \WObj:=DefaultFrame;
WaitTime \InPos, 2;
SetDO \Sync, DO_1, 1;
WaitTime 0.5;
SetDO \Sync, DO_1, 0;
MoveL [[-228.423,1027.794,763.856],[-0.06034,0.99024,-0.11596,0.04841],conf,extj],Speed001,Zone001,kinectAzure \WObj:=DefaultFrame;
WaitTime \InPos, 2;
SetDO \Sync, DO_1, 1;
WaitTime 0.5;
SetDO \Sync, DO_1, 0;
MoveL [[-309.951,1025.246,790.81],[0.00369,0.97588,-0.17886,0.12509],conf,extj],Speed001,Zone001,kinectAzure \WObj:=DefaultFrame;
WaitTime \InPos, 2;
SetDO \Sync, DO_1, 1;
WaitTime 0.5;
SetDO \Sync, DO_1, 0;
MoveL [[-300.708,1042.113,612.379],[0.00165,0.9512,0.19094,0.24241],conf,extj],Speed001,Zone001,kinectAzure \WObj:=DefaultFrame;
WaitTime \InPos, 2;
SetDO \Sync, DO_1, 1;
WaitTime 0.5;
SetDO \Sync, DO_1, 0;
MoveL [[-351.446,1044.495,587.185],[-0.09834,0.92987,-0.1245,0.33191],conf,extj],Speed001,Zone001,kinectAzure \WObj:=DefaultFrame;
WaitTime \InPos, 2;
SetDO \Sync, DO_1, 1;
WaitTime 0.5;
SetDO \Sync, DO_1, 0;
MoveL [[-501.587,1033.887,699.398],[-0.11618,0.95996,-0.10778,0.231],conf,extj],Speed001,Zone001,kinectAzure \WObj:=DefaultFrame;
WaitTime \InPos, 2;
SetDO \Sync, DO_1, 1;
WaitTime 0.5;
SetDO \Sync, DO_1, 0;
MoveL [[-486.799,1045.91,572.211],[0.01561,0.9264,0.17015,0.33554],conf,extj],Speed001,Zone001,kinectAzure \WObj:=DefaultFrame;
WaitTime \InPos, 2;
SetDO \Sync, DO_1, 1;
WaitTime 0.5;
SetDO \Sync, DO_1, 0;
MoveL [[-577.344,1045.667,574.782],[-0.18825,0.87955,-0.18532,0.39574],conf,extj],Speed001,Zone001,kinectAzure \WObj:=DefaultFrame;
WaitTime \InPos, 2;
SetDO \Sync, DO_1, 1;
WaitTime 0.5;
SetDO \Sync, DO_1, 0;
MoveL [[-729.7,1092.359,729.66],[0.05047,0.9072,0.15048,0.3896],conf,extj],Speed001,Zone001,kinectAzure \WObj:=DefaultFrame;
WaitTime \InPos, 2;
SetDO \Sync, DO_1, 1;
WaitTime 0.5;
SetDO \Sync, DO_1, 0;
MoveL [[-446.382,1094.481,527.014],[0.02814,0.95514,-0.00078,0.2948],conf,extj],Speed001,Zone001,kinectAzure \WObj:=DefaultFrame;
WaitTime \InPos, 2;
SetDO \Sync, DO_1, 1;
WaitTime 0.5;
SetDO \Sync, DO_1, 0;
MoveL [[-457.124,1093.296,640.206],[-0.07574,0.94856,-0.00131,0.3074],conf,extj],Speed001,Zone001,kinectAzure \WObj:=DefaultFrame;
WaitTime \InPos, 2;
SetDO \Sync, DO_1, 1;
WaitTime 0.5;
SetDO \Sync, DO_1, 0;
MoveL [[-340.747,1094.012,571.817],[0.0486,0.95151,0.07826,0.29351],conf,extj],Speed001,Zone001,kinectAzure \WObj:=DefaultFrame;
WaitTime \InPos, 2;
SetDO \Sync, DO_1, 1;
WaitTime 0.5;
SetDO \Sync, DO_1, 0;
MoveL [[-412.142,1091.172,843.004],[0.0432,0.97138,-0.10383,0.20921],conf,extj],Speed001,Zone001,kinectAzure \WObj:=DefaultFrame;
WaitTime \InPos, 2;
SetDO \Sync, DO_1, 1;
WaitTime 0.5;
SetDO \Sync, DO_1, 0;
MoveL [[-369.585,1090.081,947.114],[-0.02433,0.975,0.01929,0.22003],conf,extj],Speed001,Zone001,kinectAzure \WObj:=DefaultFrame;
WaitTime \InPos, 2;
SetDO \Sync, DO_1, 1;
WaitTime 0.5;
SetDO \Sync, DO_1, 0;
MoveL [[-252.415,1091.122,847.801],[-0.04771,0.95882,-0.16988,0.22257],conf,extj],Speed001,Zone001,kinectAzure \WObj:=DefaultFrame;
WaitTime \InPos, 2;
SetDO \Sync, DO_1, 1;
WaitTime 0.5;
SetDO \Sync, DO_1, 0;
MoveL [[-138.234,1093.096,659.23],[0.07155,0.98271,-0.16896,0.02462],conf,extj],Speed001,Zone001,kinectAzure \WObj:=DefaultFrame;
WaitTime \InPos, 2;
SetDO \Sync, DO_1, 1;
WaitTime 0.5;
SetDO \Sync, DO_1, 0;
MoveL [[-103.555,1091.3,830.721],[0.07927,0.98249,-0.1583,0.0581],conf,extj],Speed001,Zone001,kinectAzure \WObj:=DefaultFrame;
WaitTime \InPos, 2;
SetDO \Sync, DO_1, 1;
WaitTime 0.5;
SetDO \Sync, DO_1, 0;
MoveL [[-37.965,1090.388,917.862],[-0.04512,0.98517,-0.13728,0.09247],conf,extj],Speed001,Zone001,kinectAzure \WObj:=DefaultFrame;
WaitTime \InPos, 2;
SetDO \Sync, DO_1, 1;
WaitTime 0.5;
SetDO \Sync, DO_1, 0;
MoveL [[38.446,1090.266,929.491],[-0.00264,0.97085,-0.22637,0.07877],conf,extj],Speed001,Zone001,kinectAzure \WObj:=DefaultFrame;
WaitTime \InPos, 2;
SetDO \Sync, DO_1, 1;
WaitTime 0.5;
SetDO \Sync, DO_1, 0;
MoveL [[127.977,1089.249,1026.637],[-0.03324,0.99294,0.10578,-0.04226],conf,extj],Speed001,Zone001,kinectAzure \WObj:=DefaultFrame;
WaitTime \InPos, 2;
SetDO \Sync, DO_1, 1;
WaitTime 0.5;
SetDO \Sync, DO_1, 0;
MoveL [[170.484,1091.486,813.029],[-0.06413,0.99408,-0.01763,-0.08594],conf,extj],Speed001,Zone001,kinectAzure \WObj:=DefaultFrame;
WaitTime \InPos, 2;
SetDO \Sync, DO_1, 1;
WaitTime 0.5;
SetDO \Sync, DO_1, 0;
MoveL [[269.109,1090.534,903.872],[-0.06098,0.98184,-0.09348,-0.15342],conf,extj],Speed001,Zone001,kinectAzure \WObj:=DefaultFrame;
WaitTime \InPos, 2;
SetDO \Sync, DO_1, 1;
WaitTime 0.5;
SetDO \Sync, DO_1, 0;
MoveL [[250.536,1093.276,642.033],[-0.06621,0.97551,0.0785,-0.19453],conf,extj],Speed001,Zone001,kinectAzure \WObj:=DefaultFrame;
WaitTime \InPos, 2;
SetDO \Sync, DO_1, 1;
WaitTime 0.5;
SetDO \Sync, DO_1, 0;
MoveL [[400.788,1091.415,819.78],[-0.00448,0.96428,0.11571,-0.23824],conf,extj],Speed001,Zone001,kinectAzure \WObj:=DefaultFrame;
WaitTime \InPos, 2;
SetDO \Sync, DO_1, 1;
WaitTime 0.5;
SetDO \Sync, DO_1, 0;
MoveL [[527.178,1090.735,884.671],[-0.03342,0.94225,-0.17915,-0.281],conf,extj],Speed001,Zone001,kinectAzure \WObj:=DefaultFrame;
WaitTime \InPos, 2;
SetDO \Sync, DO_1, 1;
WaitTime 0.5;
SetDO \Sync, DO_1, 0;
MoveL [[434.693,1093.625,608.792],[-0.04555,0.94933,0.14043,-0.27746],conf,extj],Speed001,Zone001,kinectAzure \WObj:=DefaultFrame;
WaitTime \InPos, 2;
SetDO \Sync, DO_1, 1;
WaitTime 0.5;
SetDO \Sync, DO_1, 0;
MoveL [[422.789,1094.773,499.159],[-0.05039,0.93274,0.15879,-0.31974],conf,extj],Speed001,Zone001,kinectAzure \WObj:=DefaultFrame;
WaitTime \InPos, 2;
SetDO \Sync, DO_1, 1;
WaitTime 0.5;
SetDO \Sync, DO_1, 0;
MoveL [[543.842,1094.305,543.812],[-0.09705,0.90164,0.20614,-0.3676],conf,extj],Speed001,Zone001,kinectAzure \WObj:=DefaultFrame;
WaitTime \InPos, 2;
SetDO \Sync, DO_1, 1;
WaitTime 0.5;
SetDO \Sync, DO_1, 0;
MoveL [[589.02,1143.139,587.438],[0.03778,0.94049,-0.08116,-0.32782],conf,extj],Speed001,Zone001,kinectAzure \WObj:=DefaultFrame;
WaitTime \InPos, 2;
SetDO \Sync, DO_1, 1;
WaitTime 0.5;
SetDO \Sync, DO_1, 0;
MoveL [[472.273,1140.838,556.114],[0.08763,0.95642,-0.09746,-0.26093],conf,extj],Speed001,Zone001,kinectAzure \WObj:=DefaultFrame;
WaitTime \InPos, 2;
SetDO \Sync, DO_1, 1;
WaitTime 0.5;
SetDO \Sync, DO_1, 0;
MoveL [[545.82,1155.988,762.416],[0.01321,0.93625,-0.09076,-0.33915],conf,extj],Speed001,Zone001,kinectAzure \WObj:=DefaultFrame;
WaitTime \InPos, 2;
SetDO \Sync, DO_1, 1;
WaitTime 0.5;
SetDO \Sync, DO_1, 0;
MoveL [[357.833,1143.981,598.909],[0.04458,0.90729,-0.23855,-0.34342],conf,extj],Speed001,Zone001,kinectAzure \WObj:=DefaultFrame;
WaitTime \InPos, 2;
SetDO \Sync, DO_1, 1;
WaitTime 0.5;
SetDO \Sync, DO_1, 0;
MoveL [[432.663,1164.818,882.649],[0.0145,0.96774,0.1367,-0.21115],conf,extj],Speed001,Zone001,kinectAzure \WObj:=DefaultFrame;
WaitTime \InPos, 2;
SetDO \Sync, DO_1, 1;
WaitTime 0.5;
SetDO \Sync, DO_1, 0;
MoveL [[337.551,1163.356,862.746],[0.07235,0.93629,-0.22806,-0.25712],conf,extj],Speed001,Zone001,kinectAzure \WObj:=DefaultFrame;
WaitTime \InPos, 2;
SetDO \Sync, DO_1, 1;
WaitTime 0.5;
SetDO \Sync, DO_1, 0;
MoveL [[204.993,1150.429,686.711],[0.00141,0.966,0.21746,-0.13986],conf,extj],Speed001,Zone001,kinectAzure \WObj:=DefaultFrame;
WaitTime \InPos, 2;
SetDO \Sync, DO_1, 1;
WaitTime 0.5;
SetDO \Sync, DO_1, 0;
MoveL [[209.204,1173.072,995.058],[0.12548,0.97083,-0.20053,-0.03921],conf,extj],Speed001,Zone001,kinectAzure \WObj:=DefaultFrame;
WaitTime \InPos, 2;
SetDO \Sync, DO_1, 1;
WaitTime 0.5;
SetDO \Sync, DO_1, 0;
MoveL [[100.926,1159.299,807.499],[-0.02244,0.99501,-0.0971,-0.00547],conf,extj],Speed001,Zone001,kinectAzure \WObj:=DefaultFrame;
WaitTime \InPos, 2;
SetDO \Sync, DO_1, 1;
WaitTime 0.5;
SetDO \Sync, DO_1, 0;
MoveL [[33.633,1159.555,810.978],[0.03824,0.97628,0.20986,-0.03717],conf,extj],Speed001,Zone001,kinectAzure \WObj:=DefaultFrame;
WaitTime \InPos, 2;
SetDO \Sync, DO_1, 1;
WaitTime 0.5;
SetDO \Sync, DO_1, 0;
MoveL [[-43.055,1176.239,1038.178],[0.05395,0.98152,0.18301,0.01478],conf,extj],Speed001,Zone001,kinectAzure \WObj:=DefaultFrame;
WaitTime \InPos, 2;
SetDO \Sync, DO_1, 1;
WaitTime 0.5;
SetDO \Sync, DO_1, 0;
MoveL [[-125.194,1173.558,1001.665],[0.03982,0.97653,0.20634,0.04723],conf,extj],Speed001,Zone001,kinectAzure \WObj:=DefaultFrame;
WaitTime \InPos, 2;
SetDO \Sync, DO_1, 1;
WaitTime 0.5;
SetDO \Sync, DO_1, 0;
MoveL [[-171.491,1159.9,815.68],[-0.03824,0.99022,-0.04533,0.12626],conf,extj],Speed001,Zone001,kinectAzure \WObj:=DefaultFrame;
WaitTime \InPos, 2;
SetDO \Sync, DO_1, 1;
WaitTime 0.5;
SetDO \Sync, DO_1, 0;
MoveL [[-266.063,1165.452,891.289],[0.06103,0.94571,-0.2324,0.21884],conf,extj],Speed001,Zone001,kinectAzure \WObj:=DefaultFrame;
WaitTime \InPos, 2;
SetDO \Sync, DO_1, 1;
WaitTime 0.5;
SetDO \Sync, DO_1, 0;
MoveL [[-294.865,1155.344,753.644],[-0.00992,0.98861,0.01914,0.14892],conf,extj],Speed001,Zone001,kinectAzure \WObj:=DefaultFrame;
WaitTime \InPos, 2;
SetDO \Sync, DO_1, 1;
WaitTime 0.5;
SetDO \Sync, DO_1, 0;
MoveL [[-342.933,1151.375,699.596],[0.09395,0.95611,0.18222,0.20934],conf,extj],Speed001,Zone001,kinectAzure \WObj:=DefaultFrame;
WaitTime \InPos, 2;
SetDO \Sync, DO_1, 1;
WaitTime 0.5;
SetDO \Sync, DO_1, 0;
MoveL [[-407.493,1150.085,682.025],[-0.02947,0.94379,-0.06668,0.3224],conf,extj],Speed001,Zone001,kinectAzure \WObj:=DefaultFrame;
WaitTime \InPos, 2;
SetDO \Sync, DO_1, 1;
WaitTime 0.5;
SetDO \Sync, DO_1, 0;
MoveL [[-432.977,1144.413,604.794],[0.06072,0.93419,-0.034,0.34992],conf,extj],Speed001,Zone001,kinectAzure \WObj:=DefaultFrame;
WaitTime \InPos, 2;
SetDO \Sync, DO_1, 1;
WaitTime 0.5;
SetDO \Sync, DO_1, 0;
MoveL [[-505.764,1143.735,595.551],[0.06221,0.92186,0.15506,0.34965],conf,extj],Speed001,Zone001,kinectAzure \WObj:=DefaultFrame;
WaitTime \InPos, 2;
SetDO \Sync, DO_1, 1;
WaitTime 0.5;
SetDO \Sync, DO_1, 0;
MoveL [[-546.999,1140.061,545.53],[0.0791,0.92756,-0.07232,0.35797],conf,extj],Speed001,Zone001,kinectAzure \WObj:=DefaultFrame;
WaitTime \InPos, 2;
SetDO \Sync, DO_1, 1;
WaitTime 0.5;
SetDO \Sync, DO_1, 0;
MoveL [[-474.911,1174.292,469.064],[0.16789,0.8828,0.26498,0.34967],conf,extj],Speed001,Zone001,kinectAzure \WObj:=DefaultFrame;
WaitTime \InPos, 2;
SetDO \Sync, DO_1, 1;
WaitTime 0.5;
SetDO \Sync, DO_1, 0;
MoveL [[-512.442,1194.649,597.59],[0.11636,0.9205,0.09007,0.36197],conf,extj],Speed001,Zone001,kinectAzure \WObj:=DefaultFrame;
WaitTime \InPos, 2;
SetDO \Sync, DO_1, 1;
WaitTime 0.5;
SetDO \Sync, DO_1, 0;
MoveL [[-383.213,1183.962,530.116],[0.01382,0.90718,-0.14185,0.39587],conf,extj],Speed001,Zone001,kinectAzure \WObj:=DefaultFrame;
WaitTime \InPos, 2;
SetDO \Sync, DO_1, 1;
WaitTime 0.5;
SetDO \Sync, DO_1, 0;
MoveL [[-520.228,1236.576,862.307],[0.13927,0.9307,0.23715,0.24115],conf,extj],Speed001,Zone001,kinectAzure \WObj:=DefaultFrame;
WaitTime \InPos, 2;
SetDO \Sync, DO_1, 1;
WaitTime 0.5;
SetDO \Sync, DO_1, 0;
MoveL [[-367.83,1217.702,743.144],[0.07798,0.96866,0.13235,0.19518],conf,extj],Speed001,Zone001,kinectAzure \WObj:=DefaultFrame;
WaitTime \InPos, 2;
SetDO \Sync, DO_1, 1;
WaitTime 0.5;
SetDO \Sync, DO_1, 0;
MoveL [[-381.003,1252.747,964.406],[0.11264,0.97585,-0.10356,0.15591],conf,extj],Speed001,Zone001,kinectAzure \WObj:=DefaultFrame;
WaitTime \InPos, 2;
SetDO \Sync, DO_1, 1;
WaitTime 0.5;
SetDO \Sync, DO_1, 0;
MoveL [[-287.917,1251.287,955.191],[-0.04837,0.9601,-0.20771,0.18092],conf,extj],Speed001,Zone001,kinectAzure \WObj:=DefaultFrame;
WaitTime \InPos, 2;
SetDO \Sync, DO_1, 1;
WaitTime 0.5;
SetDO \Sync, DO_1, 0;
MoveL [[-190.243,1241.934,896.138],[0.08193,0.94495,-0.23848,0.20853],conf,extj],Speed001,Zone001,kinectAzure \WObj:=DefaultFrame;
WaitTime \InPos, 2;
SetDO \Sync, DO_1, 1;
WaitTime 0.5;
SetDO \Sync, DO_1, 0;
MoveL [[-81.257,1201.977,643.857],[0.05422,0.99664,0.06116,0.00514],conf,extj],Speed001,Zone001,kinectAzure \WObj:=DefaultFrame;
WaitTime \InPos, 2;
SetDO \Sync, DO_1, 1;
WaitTime 0.5;
SetDO \Sync, DO_1, 0;
MoveL [[-42.754,1261.706,1020.969],[0.03002,0.99885,-0.00804,0.03663],conf,extj],Speed001,Zone001,kinectAzure \WObj:=DefaultFrame;
WaitTime \InPos, 2;
SetDO \Sync, DO_1, 1;
WaitTime 0.5;
SetDO \Sync, DO_1, 0;
MoveL [[33.292,1225.918,795.012],[0.04221,0.99213,0.11127,-0.039],conf,extj],Speed001,Zone001,kinectAzure \WObj:=DefaultFrame;
WaitTime \InPos, 2;
SetDO \Sync, DO_1, 1;
WaitTime 0.5;
SetDO \Sync, DO_1, 0;
MoveL [[104.649,1231.334,829.208],[0.0196,0.99715,-0.01275,-0.07169],conf,extj],Speed001,Zone001,kinectAzure \WObj:=DefaultFrame;
WaitTime \InPos, 2;
SetDO \Sync, DO_1, 1;
WaitTime 0.5;
SetDO \Sync, DO_1, 0;
MoveL [[179.399,1233.844,845.059],[0.13547,0.98397,-0.01962,-0.1143],conf,extj],Speed001,Zone001,kinectAzure \WObj:=DefaultFrame;
WaitTime \InPos, 2;
SetDO \Sync, DO_1, 1;
WaitTime 0.5;
SetDO \Sync, DO_1, 0;
MoveL [[195.439,1202.694,648.385],[0.04145,0.9616,0.21501,-0.16545],conf,extj],Speed001,Zone001,kinectAzure \WObj:=DefaultFrame;
WaitTime \InPos, 2;
SetDO \Sync, DO_1, 1;
WaitTime 0.5;
SetDO \Sync, DO_1, 0;
MoveL [[381.376,1252.896,965.35],[0.03101,0.97468,0.09255,-0.20116],conf,extj],Speed001,Zone001,kinectAzure \WObj:=DefaultFrame;
WaitTime \InPos, 2;
SetDO \Sync, DO_1, 1;
WaitTime 0.5;
SetDO \Sync, DO_1, 0;
MoveL [[329.201,1205.341,665.1],[0.12901,0.96028,-0.00499,-0.24736],conf,extj],Speed001,Zone001,kinectAzure \WObj:=DefaultFrame;
WaitTime \InPos, 2;
SetDO \Sync, DO_1, 1;
WaitTime 0.5;
SetDO \Sync, DO_1, 0;
MoveL [[382.783,1200.492,634.484],[0.22139,0.93516,-0.16347,-0.22301],conf,extj],Speed001,Zone001,kinectAzure \WObj:=DefaultFrame;
WaitTime \InPos, 2;
SetDO \Sync, DO_1, 1;
WaitTime 0.5;
SetDO \Sync, DO_1, 0;
MoveL [[519.053,1213.725,718.028],[0.05235,0.93375,-0.09585,-0.34086],conf,extj],Speed001,Zone001,kinectAzure \WObj:=DefaultFrame;
WaitTime \InPos, 2;
SetDO \Sync, DO_1, 1;
WaitTime 0.5;
SetDO \Sync, DO_1, 0;
MoveL [[622.602,1214.996,726.054],[-0.00796,0.92317,0.16289,-0.34807],conf,extj],Speed001,Zone001,kinectAzure \WObj:=DefaultFrame;
WaitTime \InPos, 2;
SetDO \Sync, DO_1, 1;
WaitTime 0.5;
SetDO \Sync, DO_1, 0;
MoveL [[473.193,1174.024,467.368],[0.21447,0.91251,-0.10365,-0.33256],conf,extj],Speed001,Zone001,kinectAzure \WObj:=DefaultFrame;
WaitTime \InPos, 2;
SetDO \Sync, DO_1, 1;
WaitTime 0.5;
SetDO \Sync, DO_1, 0;
MoveL [[672.93,1260.516,653.506],[0.05311,0.91837,-0.01551,-0.39184],conf,extj],Speed001,Zone001,kinectAzure \WObj:=DefaultFrame;
WaitTime \InPos, 2;
SetDO \Sync, DO_1, 1;
WaitTime 0.5;
SetDO \Sync, DO_1, 0;
MoveL [[563.821,1258.792,646.486],[0.27323,0.8935,-0.21419,-0.28482],conf,extj],Speed001,Zone001,kinectAzure \WObj:=DefaultFrame;
WaitTime \InPos, 2;
SetDO \Sync, DO_1, 1;
WaitTime 0.5;
SetDO \Sync, DO_1, 0;
MoveL [[486.159,1262.419,661.253],[0.06816,0.93252,0.15003,-0.32131],conf,extj],Speed001,Zone001,kinectAzure \WObj:=DefaultFrame;
WaitTime \InPos, 2;
SetDO \Sync, DO_1, 1;
WaitTime 0.5;
SetDO \Sync, DO_1, 0;
MoveL [[425.669,1270.4,693.745],[0.08032,0.93898,-0.15377,-0.29703],conf,extj],Speed001,Zone001,kinectAzure \WObj:=DefaultFrame;
WaitTime \InPos, 2;
SetDO \Sync, DO_1, 1;
WaitTime 0.5;
SetDO \Sync, DO_1, 0;
MoveL [[395.346,1292.901,785.35],[0.13582,0.94868,-0.09026,-0.27094],conf,extj],Speed001,Zone001,kinectAzure \WObj:=DefaultFrame;
WaitTime \InPos, 2;
SetDO \Sync, DO_1, 1;
WaitTime 0.5;
SetDO \Sync, DO_1, 0;
MoveL [[316.532,1293.499,787.787],[0.21458,0.95706,-0.16893,-0.09729],conf,extj],Speed001,Zone001,kinectAzure \WObj:=DefaultFrame;
WaitTime \InPos, 2;
SetDO \Sync, DO_1, 1;
WaitTime 0.5;
SetDO \Sync, DO_1, 0;
MoveL [[224.472,1279.851,732.224],[0.14026,0.96075,-0.11979,-0.20723],conf,extj],Speed001,Zone001,kinectAzure \WObj:=DefaultFrame;
WaitTime \InPos, 2;
SetDO \Sync, DO_1, 1;
WaitTime 0.5;
SetDO \Sync, DO_1, 0;
MoveL [[156.562,1278.108,725.127],[0.16545,0.9848,-0.03668,-0.03807],conf,extj],Speed001,Zone001,kinectAzure \WObj:=DefaultFrame;
WaitTime \InPos, 2;
SetDO \Sync, DO_1, 1;
WaitTime 0.5;
SetDO \Sync, DO_1, 0;
MoveL [[80.708,1254.445,628.789],[0.08986,0.98059,0.16266,-0.06255],conf,extj],Speed001,Zone001,kinectAzure \WObj:=DefaultFrame;
WaitTime \InPos, 2;
SetDO \Sync, DO_1, 1;
WaitTime 0.5;
SetDO \Sync, DO_1, 0;
MoveL [[31.135,1279.563,731.051],[0.13754,0.9766,0.16205,-0.03278],conf,extj],Speed001,Zone001,kinectAzure \WObj:=DefaultFrame;
WaitTime \InPos, 2;
SetDO \Sync, DO_1, 1;
WaitTime 0.5;
SetDO \Sync, DO_1, 0;
MoveL [[-35.437,1304.371,832.05],[0.05981,0.99482,-0.04806,0.0667],conf,extj],Speed001,Zone001,kinectAzure \WObj:=DefaultFrame;
WaitTime \InPos, 2;
SetDO \Sync, DO_1, 1;
WaitTime 0.5;
SetDO \Sync, DO_1, 0;
MoveL [[-89.812,1271.866,699.714],[0.14561,0.98039,0.13166,0.01712],conf,extj],Speed001,Zone001,kinectAzure \WObj:=DefaultFrame;
WaitTime \InPos, 2;
SetDO \Sync, DO_1, 1;
WaitTime 0.5;
SetDO \Sync, DO_1, 0;
MoveL [[-147.143,1267.392,681.499],[0.02199,0.96865,-0.24737,0.00665],conf,extj],Speed001,Zone001,kinectAzure \WObj:=DefaultFrame;
WaitTime \InPos, 2;
SetDO \Sync, DO_1, 1;
WaitTime 0.5;
SetDO \Sync, DO_1, 0;
MoveL [[-269.206,1315.693,878.146],[0.15975,0.97155,-0.0217,0.17347],conf,extj],Speed001,Zone001,kinectAzure \WObj:=DefaultFrame;
WaitTime \InPos, 2;
SetDO \Sync, DO_1, 1;
WaitTime 0.5;
SetDO \Sync, DO_1, 0;
MoveL [[-245.015,1249.78,609.794],[0.16353,0.94352,0.24191,0.15658],conf,extj],Speed001,Zone001,kinectAzure \WObj:=DefaultFrame;
WaitTime \InPos, 2;
SetDO \Sync, DO_1, 1;
WaitTime 0.5;
SetDO \Sync, DO_1, 0;
MoveL [[-397.003,1293.709,788.642],[0.1206,0.96154,0.15026,0.19574],conf,extj],Speed001,Zone001,kinectAzure \WObj:=DefaultFrame;
WaitTime \InPos, 2;
SetDO \Sync, DO_1, 1;
WaitTime 0.5;
SetDO \Sync, DO_1, 0;
MoveL [[-436.123,1274.585,710.782],[0.10091,0.96284,-0.1577,0.19463],conf,extj],Speed001,Zone001,kinectAzure \WObj:=DefaultFrame;
WaitTime \InPos, 2;
SetDO \Sync, DO_1, 1;
WaitTime 0.5;
SetDO \Sync, DO_1, 0;
MoveL [[-478.154,1259.745,650.366],[0.15993,0.93457,-0.01421,0.31749],conf,extj],Speed001,Zone001,kinectAzure \WObj:=DefaultFrame;
WaitTime \InPos, 2;
SetDO \Sync, DO_1, 1;
WaitTime 0.5;
SetDO \Sync, DO_1, 0;
MoveL [[-437.469,1223.207,501.609],[-0.00337,0.9384,0.00313,0.34553],conf,extj],Speed001,Zone001,kinectAzure \WObj:=DefaultFrame;
WaitTime \InPos, 2;
SetDO \Sync, DO_1, 1;
WaitTime 0.5;
SetDO \Sync, DO_1, 0;
MoveL [[-616.282,1247.004,598.493],[0.14954,0.9066,0.02185,0.39401],conf,extj],Speed001,Zone001,kinectAzure \WObj:=DefaultFrame;
WaitTime \InPos, 2;
SetDO \Sync, DO_1, 1;
WaitTime 0.5;
SetDO \Sync, DO_1, 0;
MoveL [[-567.669,1281.063,538.019],[0.1227,0.86978,-0.18596,0.44028],conf,extj],Speed001,Zone001,kinectAzure \WObj:=DefaultFrame;
WaitTime \InPos, 2;
SetDO \Sync, DO_1, 1;
WaitTime 0.5;
SetDO \Sync, DO_1, 0;
MoveL [[-671.602,1352.922,751.541],[0.22825,0.89243,0.25477,0.2942],conf,extj],Speed001,Zone001,kinectAzure \WObj:=DefaultFrame;
WaitTime \InPos, 2;
SetDO \Sync, DO_1, 1;
WaitTime 0.5;
SetDO \Sync, DO_1, 0;
MoveL [[-542.802,1342.486,720.533],[0.19204,0.94334,0.02488,0.26946],conf,extj],Speed001,Zone001,kinectAzure \WObj:=DefaultFrame;
WaitTime \InPos, 2;
SetDO \Sync, DO_1, 1;
WaitTime 0.5;
SetDO \Sync, DO_1, 0;
MoveL [[-385.107,1306.141,612.536],[0.18515,0.92683,0.21889,0.24248],conf,extj],Speed001,Zone001,kinectAzure \WObj:=DefaultFrame;
WaitTime \InPos, 2;
SetDO \Sync, DO_1, 1;
WaitTime 0.5;
SetDO \Sync, DO_1, 0;
MoveL [[-451.32,1394.46,874.97],[0.15934,0.93573,-0.12374,0.28933],conf,extj],Speed001,Zone001,kinectAzure \WObj:=DefaultFrame;
WaitTime \InPos, 2;
SetDO \Sync, DO_1, 1;
WaitTime 0.5;
SetDO \Sync, DO_1, 0;
MoveL [[-315.823,1358.161,767.11],[0.1125,0.96062,-0.02688,0.25266],conf,extj],Speed001,Zone001,kinectAzure \WObj:=DefaultFrame;
WaitTime \InPos, 2;
SetDO \Sync, DO_1, 1;
WaitTime 0.5;
SetDO \Sync, DO_1, 0;
MoveL [[-208.687,1323.58,664.356],[0.07897,0.98301,-0.0012,0.16571],conf,extj],Speed001,Zone001,kinectAzure \WObj:=DefaultFrame;
WaitTime \InPos, 2;
SetDO \Sync, DO_1, 1;
WaitTime 0.5;
SetDO \Sync, DO_1, 0;
MoveL [[-211.638,1421.941,956.629],[0.1771,0.97269,-0.00545,0.14995],conf,extj],Speed001,Zone001,kinectAzure \WObj:=DefaultFrame;
WaitTime \InPos, 2;
SetDO \Sync, DO_1, 1;
WaitTime 0.5;
SetDO \Sync, DO_1, 0;
MoveL [[-106.199,1371.747,807.479],[0.22098,0.96753,-0.07999,0.09307],conf,extj],Speed001,Zone001,kinectAzure \WObj:=DefaultFrame;
WaitTime \InPos, 2;
SetDO \Sync, DO_1, 1;
WaitTime 0.5;
SetDO \Sync, DO_1, 0;
MoveL [[-42.269,1425.967,968.593],[0.05551,0.9659,-0.24838,0.04763],conf,extj],Speed001,Zone001,kinectAzure \WObj:=DefaultFrame;
WaitTime \InPos, 2;
SetDO \Sync, DO_1, 1;
WaitTime 0.5;
SetDO \Sync, DO_1, 0;
MoveL [[31.349,1341.752,718.351],[0.16188,0.97955,0.09267,-0.07546],conf,extj],Speed001,Zone001,kinectAzure \WObj:=DefaultFrame;
WaitTime \InPos, 2;
SetDO \Sync, DO_1, 1;
WaitTime 0.5;
SetDO \Sync, DO_1, 0;
MoveL [[84.598,1316.473,643.236],[0.14835,0.96135,0.21451,-0.08825],conf,extj],Speed001,Zone001,kinectAzure \WObj:=DefaultFrame;
WaitTime \InPos, 2;
SetDO \Sync, DO_1, 1;
WaitTime 0.5;
SetDO \Sync, DO_1, 0;
MoveL [[171.504,1360.889,775.217],[0.18167,0.98176,0.01145,-0.05488],conf,extj],Speed001,Zone001,kinectAzure \WObj:=DefaultFrame;
WaitTime \InPos, 2;
SetDO \Sync, DO_1, 1;
WaitTime 0.5;
SetDO \Sync, DO_1, 0;
MoveL [[260.16,1378.726,828.218],[0.18156,0.97857,-0.00374,-0.09712],conf,extj],Speed001,Zone001,kinectAzure \WObj:=DefaultFrame;
WaitTime \InPos, 2;
SetDO \Sync, DO_1, 1;
WaitTime 0.5;
SetDO \Sync, DO_1, 0;
MoveL [[319.445,1361.122,775.908],[0.14506,0.95822,0.1146,-0.21825],conf,extj],Speed001,Zone001,kinectAzure \WObj:=DefaultFrame;
WaitTime \InPos, 2;
SetDO \Sync, DO_1, 1;
WaitTime 0.5;
SetDO \Sync, DO_1, 0;
MoveL [[381.396,1348.839,739.409],[0.09698,0.94568,0.17607,-0.25549],conf,extj],Speed001,Zone001,kinectAzure \WObj:=DefaultFrame;
WaitTime \InPos, 2;
SetDO \Sync, DO_1, 1;
WaitTime 0.5;
SetDO \Sync, DO_1, 0;
MoveL [[524.288,1380.642,833.911],[0.10699,0.94473,0.08604,-0.29772],conf,extj],Speed001,Zone001,kinectAzure \WObj:=DefaultFrame;
WaitTime \InPos, 2;
SetDO \Sync, DO_1, 1;
WaitTime 0.5;
SetDO \Sync, DO_1, 0;
MoveL [[497.102,1322.071,659.87],[0.1092,0.93437,0.12795,-0.31409],conf,extj],Speed001,Zone001,kinectAzure \WObj:=DefaultFrame;
WaitTime \InPos, 2;
SetDO \Sync, DO_1, 1;
WaitTime 0.5;
SetDO \Sync, DO_1, 0;
MoveL [[670.47,1352.495,750.274],[0.17456,0.93091,-0.0144,-0.32052],conf,extj],Speed001,Zone001,kinectAzure \WObj:=DefaultFrame;
WaitTime \InPos, 2;
SetDO \Sync, DO_1, 1;
WaitTime 0.5;
SetDO \Sync, DO_1, 0;
MoveL [[484.697,1254.599,459.381],[0.10719,0.93035,-0.04755,-0.34742],conf,extj],Speed001,Zone001,kinectAzure \WObj:=DefaultFrame;
WaitTime \InPos, 2;
SetDO \Sync, DO_1, 1;
WaitTime 0.5;
SetDO \Sync, DO_1, 0;
MoveL [[616.506,1344.844,565.801],[0.08659,0.8954,0.14901,-0.41055],conf,extj],Speed001,Zone001,kinectAzure \WObj:=DefaultFrame;
WaitTime \InPos, 2;
SetDO \Sync, DO_1, 1;
WaitTime 0.5;
SetDO \Sync, DO_1, 0;
MoveL [[434.76,1303.864,471.102],[0.17376,0.90712,-0.0212,-0.38274],conf,extj],Speed001,Zone001,kinectAzure \WObj:=DefaultFrame;
WaitTime \InPos, 2;
SetDO \Sync, DO_1, 1;
WaitTime 0.5;
SetDO \Sync, DO_1, 0;
MoveL [[572.476,1418.434,735.857],[0.22937,0.93153,-0.20472,-0.19425],conf,extj],Speed001,Zone001,kinectAzure \WObj:=DefaultFrame;
WaitTime \InPos, 2;
SetDO \Sync, DO_1, 1;
WaitTime 0.5;
SetDO \Sync, DO_1, 0;
MoveL [[394.386,1362.858,607.43],[0.17382,0.94047,0.10176,-0.27376],conf,extj],Speed001,Zone001,kinectAzure \WObj:=DefaultFrame;
WaitTime \InPos, 2;
SetDO \Sync, DO_1, 1;
WaitTime 0.5;
SetDO \Sync, DO_1, 0;
MoveL [[380.923,1409.453,715.105],[0.29539,0.89672,-0.24489,-0.22063],conf,extj],Speed001,Zone001,kinectAzure \WObj:=DefaultFrame;
WaitTime \InPos, 2;
SetDO \Sync, DO_1, 1;
WaitTime 0.5;
SetDO \Sync, DO_1, 0;
MoveL [[287.299,1392.414,675.728],[0.15114,0.94259,0.19924,-0.22134],conf,extj],Speed001,Zone001,kinectAzure \WObj:=DefaultFrame;
WaitTime \InPos, 2;
SetDO \Sync, DO_1, 1;
WaitTime 0.5;
SetDO \Sync, DO_1, 0;
MoveL [[219.628,1392.982,677.042],[0.17828,0.96263,-0.04915,-0.19786],conf,extj],Speed001,Zone001,kinectAzure \WObj:=DefaultFrame;
WaitTime \InPos, 2;
SetDO \Sync, DO_1, 1;
WaitTime 0.5;
SetDO \Sync, DO_1, 0;
MoveL [[161.021,1404.988,704.785],[0.19062,0.92707,-0.27854,-0.16313],conf,extj],Speed001,Zone001,kinectAzure \WObj:=DefaultFrame;
WaitTime \InPos, 2;
SetDO \Sync, DO_1, 1;
WaitTime 0.5;
SetDO \Sync, DO_1, 0;
MoveL [[89.143,1384.02,656.331],[0.07719,0.96164,-0.26248,0.01975],conf,extj],Speed001,Zone001,kinectAzure \WObj:=DefaultFrame;
WaitTime \InPos, 2;
SetDO \Sync, DO_1, 1;
WaitTime 0.5;
SetDO \Sync, DO_1, 0;
MoveL [[32.609,1413.118,723.574],[0.18951,0.94928,0.24111,-0.06947],conf,extj],Speed001,Zone001,kinectAzure \WObj:=DefaultFrame;
WaitTime \InPos, 2;
SetDO \Sync, DO_1, 1;
WaitTime 0.5;
SetDO \Sync, DO_1, 0;
MoveL [[-36.221,1447.804,803.727],[0.26121,0.96184,-0.07967,0.01665],conf,extj],Speed001,Zone001,kinectAzure \WObj:=DefaultFrame;
WaitTime \InPos, 2;
SetDO \Sync, DO_1, 1;
WaitTime 0.5;
SetDO \Sync, DO_1, 0;
MoveL [[-81.407,1359.37,599.369],[0.1729,0.97446,0.13183,0.05621],conf,extj],Speed001,Zone001,kinectAzure \WObj:=DefaultFrame;
WaitTime \InPos, 2;
SetDO \Sync, DO_1, 1;
WaitTime 0.5;
SetDO \Sync, DO_1, 0;
MoveL [[-174.168,1429.889,762.33],[0.26488,0.92943,-0.23193,0.11049],conf,extj],Speed001,Zone001,kinectAzure \WObj:=DefaultFrame;
WaitTime \InPos, 2;
SetDO \Sync, DO_1, 1;
WaitTime 0.5;
SetDO \Sync, DO_1, 0;
MoveL [[-186.461,1348.739,574.801],[0.22058,0.95082,-0.00572,0.21738],conf,extj],Speed001,Zone001,kinectAzure \WObj:=DefaultFrame;
WaitTime \InPos, 2;
SetDO \Sync, DO_1, 1;
WaitTime 0.5;
SetDO \Sync, DO_1, 0;
MoveL [[-373.53,1480.18,878.543],[0.18116,0.96699,-0.11519,0.13726],conf,extj],Speed001,Zone001,kinectAzure \WObj:=DefaultFrame;
WaitTime \InPos, 2;
SetDO \Sync, DO_1, 1;
WaitTime 0.5;
SetDO \Sync, DO_1, 0;
MoveL [[-445.98,1462.304,837.236],[0.24148,0.93918,0.12847,0.20765],conf,extj],Speed001,Zone001,kinectAzure \WObj:=DefaultFrame;
WaitTime \InPos, 2;
SetDO \Sync, DO_1, 1;
WaitTime 0.5;
SetDO \Sync, DO_1, 0;
MoveL [[-521.787,1447.771,803.652],[0.17442,0.94988,0.09982,0.23946],conf,extj],Speed001,Zone001,kinectAzure \WObj:=DefaultFrame;
WaitTime \InPos, 2;
SetDO \Sync, DO_1, 1;
WaitTime 0.5;
SetDO \Sync, DO_1, 0;
MoveL [[-443.016,1346.423,569.45],[0.0253,0.90884,-0.12794,0.39624],conf,extj],Speed001,Zone001,kinectAzure \WObj:=DefaultFrame;
WaitTime \InPos, 2;
SetDO \Sync, DO_1, 1;
WaitTime 0.5;
SetDO \Sync, DO_1, 0;
MoveL [[-582.165,1372.984,630.828],[0.0951,0.89443,-0.09653,0.42618],conf,extj],Speed001,Zone001,kinectAzure \WObj:=DefaultFrame;
WaitTime \InPos, 2;
SetDO \Sync, DO_1, 1;
WaitTime 0.5;
SetDO \Sync, DO_1, 0;
MoveL [[-647.122,1357.003,593.899],[0.07424,0.87304,-0.13011,0.46407],conf,extj],Speed001,Zone001,kinectAzure \WObj:=DefaultFrame;
WaitTime \InPos, 2;
SetDO \Sync, DO_1, 1;
WaitTime 0.5;
SetDO \Sync, DO_1, 0;
MoveAbsJ [[90,0,-1,1,-1,1],extj],Speed000,Zone000,kinectAzure;
SetDO \Sync, DO_0, 0;
ENDPROC
ENDMODULE